; generated by PrusaSlicer 2.3.3+win64 on 2022-02-13 at 07:44:58 UTC

; 

; external perimeters extrusion width = 0.45mm
; perimeters extrusion width = 0.45mm
; infill extrusion width = 0.45mm
; solid infill extrusion width = 0.45mm
; top infill extrusion width = 0.40mm
; support material extrusion width = 0.35mm
; first layer extrusion width = 0.42mm

M73 P0 R61
M201 X9000 Y9000 Z500 E10000 ; sets maximum accelerations, mm/sec^2
M203 X500 Y500 Z12 E120 ; sets maximum feedrates, mm/sec
M204 P2000 R1500 T2000 ; sets acceleration (P, T) and retract acceleration (R), mm/sec^2
M205 X10.00 Y10.00 Z0.20 E4.50 ; sets the jerk limits, mm/sec
M205 S0 T0 ; sets the minimum extruding and travel feed rate, mm/sec
M107
;TYPE:Custom
M862.3 P "MK2.5S" ; printer model check
M862.1 P0.4 ; nozzle diameter check
M115 U3.10.0 ; tell printer latest fw version
G90 ; use absolute coordinates
M83  ; extruder relative mode
M104 S215 ; set extruder temp
M140 S60 ; set bed temp
M190 S60 ; wait for bed temp
M109 S215 ; wait for extruder temp
G28 W ; home all without mesh bed level
G80 ; mesh bed leveling
G1 Y-3.0 F1000.0 ; go outside print area
G92 E0.0
G1 X60.0 E9.0 F1000.0 ; intro line
G1 X100.0 E12.5 F1000.0 ; intro line
G92 E0.0
G21 ; set units to millimeters
G90 ; use absolute coordinates
M83 ; use relative distances for extrusion
M900 K0.05 ; Filament gcode LA 1.5
M900 K30 ; Filament gcode LA 1.0
;LAYER_CHANGE
;Z:0.2
;HEIGHT:0.2
;BEFORE_LAYER_CHANGE
G92 E0.0
;0.2


M73 P0 R60
G1 E-0.80000 F2100.000
G1 Z0.400 F10800.000
;AFTER_LAYER_CHANGE
;0.2
G1 X101.655 Y14.017
G1 Z0.200
G1 E0.80000 F2100.000
M204 S1000
;TYPE:Skirt
;WIDTH:0.42
G1 F1200.000
G1 X101.862 Y13.350 E0.02190
G1 X102.257 Y12.770 E0.02201
G1 X102.800 Y12.331 E0.02190
G1 X103.448 Y12.070 E0.02190
G1 X129.191 Y7.398 E0.82034
G1 X148.383 Y7.375 E0.60175
G1 X149.285 Y7.554 E0.02884
G1 X150.049 Y8.060 E0.02872
G1 X150.566 Y8.820 E0.02884
G1 X150.756 Y9.720 E0.02884
G1 X150.728 Y184.632 E5.48425
G1 X150.569 Y185.192 E0.01823
G1 X150.277 Y185.699 E0.01835
G1 X149.870 Y186.119 E0.01835
G1 X149.373 Y186.427 E0.01835
G1 X121.997 Y198.905 E0.94331
G1 X121.155 Y199.198 E0.02795
G1 X120.299 Y199.358 E0.02730
G1 X118.778 Y199.335 E0.04772
G1 X117.525 Y199.009 E0.04060
G1 X116.593 Y198.560 E0.03241
G1 X115.547 Y197.765 E0.04119
G1 X114.861 Y196.992 E0.03241
G1 X99.627 Y174.027 E0.86406
G1 X99.375 Y173.512 E0.01799
G1 X99.254 Y172.951 E0.01799
G1 X99.244 Y151.760 E0.66442
G1 X101.654 Y14.077 E4.31761
; printing object armpart1.stl id:0 copy 0
;WIPE_START
G1 F8640.000
G1 X101.862 Y13.350 E-0.17459
G1 X102.257 Y12.770 E-0.16211
G1 X102.800 Y12.331 E-0.16124
G1 X103.448 Y12.070 E-0.16124
G1 X103.878 Y11.992 E-0.10081
;WIPE_END
G1 E-0.04000 F2100.000
G1 Z0.600 F10800.000
G1 X129.525 Y32.002
G1 Z0.200
G1 E0.80000 F2100.000
;TYPE:Support material
G1 F1200.000
G1 X129.525 Y9.752 E0.69763
G1 X130.279 Y9.752 E0.02365
G1 X130.279 Y31.832 E0.69230
G1 X131.033 Y31.832 E0.02365
G1 X131.033 Y9.752 E0.69229
G1 X131.787 Y9.752 E0.02365
G1 X131.787 Y26.613 E0.52867
G1 X131.833 Y26.567 E0.00203
G1 X132.542 Y26.567 E0.02221
G1 X132.542 Y9.752 E0.52724
G1 X133.296 Y9.752 E0.02365
G1 X133.296 Y26.567 E0.52724
G1 X134.050 Y26.567 E0.02365
G1 X134.050 Y9.752 E0.52724
M73 P1 R60
G1 X134.804 Y9.752 E0.02365
G1 X134.804 Y26.567 E0.52724
G1 X135.558 Y26.567 E0.02365
G1 X135.558 Y9.752 E0.52724
G1 X136.312 Y9.752 E0.02365
G1 X136.312 Y26.567 E0.52724
G1 X137.067 Y26.567 E0.02365
G1 X137.067 Y9.752 E0.52724
G1 X137.821 Y9.752 E0.02365
G1 X137.821 Y26.567 E0.52724
G1 X138.575 Y26.567 E0.02365
G1 X138.575 Y9.752 E0.52724
G1 X139.329 Y9.752 E0.02365
G1 X139.329 Y26.567 E0.52724
G1 X140.083 Y26.567 E0.02365
G1 X140.083 Y9.752 E0.52724
G1 X140.837 Y9.752 E0.02365
G1 X140.837 Y26.567 E0.52724
G1 X141.592 Y26.567 E0.02365
G1 X141.592 Y9.752 E0.52724
G1 X142.346 Y9.752 E0.02365
G1 X142.346 Y26.567 E0.52724
G1 X143.100 Y26.567 E0.02365
G1 X143.100 Y9.752 E0.52724
G1 X143.854 Y9.752 E0.02365
G1 X143.854 Y26.567 E0.52724
G1 X144.608 Y26.567 E0.02365
G1 X144.608 Y9.752 E0.52724
G1 X145.362 Y9.752 E0.02365
G1 X145.362 Y26.567 E0.52724
G1 X146.116 Y26.567 E0.02365
G1 X146.116 Y9.752 E0.52724
G1 X146.871 Y9.752 E0.02365
G1 X146.871 Y29.567 E0.62130
G1 X147.625 Y29.567 E0.02365
G1 X147.625 Y9.752 E0.62130
G1 X148.379 Y9.752 E0.02365
G1 X148.379 Y29.737 E0.62662
;WIPE_START
G1 F8640.000
G1 X148.379 Y26.446 E-0.76000
;WIPE_END
G1 E-0.04000 F2100.000
G1 Z0.600 F10800.000
G1 X101.621 Y172.733
G1 Z0.200
G1 E0.80000 F2100.000
G1 F1200.000
G1 X101.621 Y151.795 E0.65650
G1 X102.375 Y151.795 E0.02365
G1 X102.375 Y172.563 E0.65118
G1 X103.129 Y172.563 E0.02365
G1 X103.129 Y151.795 E0.65118
G1 X103.591 Y151.795 E0.01446
G1 X103.591 Y154.552 E0.08647
G1 X103.833 Y154.795 E0.01074
G1 X103.884 Y154.795 E0.00158
G1 X103.884 Y172.563 E0.55712
G1 X104.638 Y172.563 E0.02365
G1 X104.638 Y154.795 E0.55712
G1 X105.392 Y154.795 E0.02365
G1 X105.392 Y172.563 E0.55712
G1 X106.146 Y172.563 E0.02365
G1 X106.146 Y154.795 E0.55712
G1 X106.900 Y154.795 E0.02365
G1 X106.900 Y172.563 E0.55712
G1 X107.654 Y172.563 E0.02365
G1 X107.654 Y154.795 E0.55712
G1 X108.408 Y154.795 E0.02365
G1 X108.408 Y172.563 E0.55712
G1 X109.163 Y172.563 E0.02365
G1 X109.163 Y154.795 E0.55712
M73 P1 R59
G1 X109.917 Y154.795 E0.02365
G1 X109.917 Y172.563 E0.55712
G1 X110.671 Y172.563 E0.02365
G1 X110.671 Y154.795 E0.55712
G1 X111.425 Y154.795 E0.02365
G1 X111.425 Y172.563 E0.55712
G1 X112.179 Y172.563 E0.02365
G1 X112.179 Y154.795 E0.55712
G1 X112.933 Y154.795 E0.02365
G1 X112.933 Y172.563 E0.55712
G1 X113.688 Y172.563 E0.02365
G1 X113.688 Y154.795 E0.55712
G1 X114.442 Y154.795 E0.02365
G1 X114.442 Y172.563 E0.55712
M73 P2 R59
G1 X115.196 Y172.563 E0.02365
G1 X115.196 Y154.795 E0.55712
G1 X115.950 Y154.795 E0.02365
G1 X115.950 Y172.563 E0.55712
G1 X116.704 Y172.563 E0.02365
G1 X116.704 Y154.795 E0.55712
G1 X117.458 Y154.795 E0.02365
G1 X117.458 Y172.563 E0.55712
G1 X118.213 Y172.563 E0.02365
G1 X118.213 Y154.749 E0.55856
G1 X118.409 Y154.552 E0.00871
G1 X118.410 Y150.484 E0.12757
G1 X118.967 Y150.484 E0.01745
G1 X118.967 Y172.563 E0.69229
G1 X119.721 Y172.563 E0.02365
G1 X119.721 Y150.483 E0.69229
G1 X120.475 Y150.483 E0.02365
G1 X120.475 Y172.733 E0.69762
;WIPE_START
G1 F8640.000
G1 X120.475 Y169.441 E-0.76000
;WIPE_END
G1 E-0.04000 F2100.000
G1 Z0.600 F10800.000
G1 X129.525 Y184.268
G1 Z0.200
G1 E0.80000 F2100.000
G1 F1200.000
G1 X129.525 Y162.025 E0.69742
G1 X130.279 Y162.023 E0.02365
G1 X130.279 Y184.099 E0.69216
G1 X131.033 Y184.099 E0.02365
G1 X131.033 Y162.021 E0.69222
G1 X131.590 Y162.020 E0.01747
G1 X131.591 Y167.152 E0.16093
G1 X131.787 Y167.349 E0.00871
G1 X131.787 Y184.099 E0.52518
G1 X132.542 Y184.099 E0.02365
G1 X132.542 Y167.395 E0.52374
G1 X133.296 Y167.395 E0.02365
G1 X133.296 Y184.099 E0.52374
G1 X134.050 Y184.099 E0.02365
G1 X134.050 Y167.395 E0.52374
G1 X134.804 Y167.395 E0.02365
G1 X134.804 Y184.099 E0.52374
G1 X135.558 Y184.099 E0.02365
G1 X135.558 Y167.395 E0.52374
G1 X136.312 Y167.395 E0.02365
G1 X136.312 Y184.099 E0.52374
G1 X137.067 Y184.099 E0.02365
G1 X137.067 Y167.395 E0.52374
G1 X137.821 Y167.395 E0.02365
G1 X137.821 Y184.099 E0.52374
G1 X138.575 Y184.099 E0.02365
G1 X138.575 Y167.395 E0.52374
G1 X139.329 Y167.395 E0.02365
G1 X139.329 Y184.099 E0.52374
G1 X140.083 Y184.099 E0.02365
G1 X140.083 Y167.395 E0.52374
G1 X140.837 Y167.395 E0.02365
G1 X140.837 Y184.099 E0.52374
G1 X141.591 Y184.099 E0.02365
G1 X141.591 Y167.395 E0.52374
G1 X142.346 Y167.395 E0.02365
G1 X142.346 Y184.099 E0.52374
G1 X143.100 Y184.099 E0.02365
G1 X143.100 Y167.395 E0.52374
G1 X143.854 Y167.395 E0.02365
G1 X143.854 Y184.099 E0.52374
G1 X144.608 Y184.099 E0.02365
G1 X144.608 Y167.395 E0.52374
G1 X145.362 Y167.395 E0.02365
G1 X145.362 Y184.099 E0.52374
G1 X146.116 Y184.099 E0.02365
G1 X146.116 Y167.395 E0.52374
G1 X146.167 Y167.395 E0.00158
G1 X146.409 Y167.152 E0.01074
G1 X146.410 Y164.395 E0.08647
G1 X146.871 Y164.395 E0.01445
G1 X146.871 Y184.099 E0.61780
G1 X147.625 Y184.099 E0.02365
G1 X147.625 Y164.395 E0.61780
G1 X148.379 Y164.395 E0.02365
G1 X148.379 Y184.268 E0.62312
;WIPE_START
G1 F8640.000
G1 X148.379 Y180.977 E-0.76000
;WIPE_END
G1 E-0.04000 F2100.000
G1 Z0.600 F10800.000
G1 X122.223 Y192.494
G1 Z0.200
G1 E0.80000 F2100.000
;TYPE:Perimeter
G1 F1200.000
G1 X122.344 Y192.917 E0.01379
G1 X122.398 Y193.365 E0.01415
G1 X122.398 Y193.562 E0.00617
G1 X122.343 Y194.022 E0.01452
G1 X122.296 Y194.213 E0.00617
G1 X122.134 Y194.647 E0.01452
G1 X122.044 Y194.822 E0.00617
G1 X121.790 Y195.195 E0.01415
G1 X121.489 Y195.515 E0.01379
G1 X121.131 Y195.790 E0.01415
G1 X120.962 Y195.891 E0.00617
G1 X120.538 Y196.079 E0.01452
G1 X120.350 Y196.137 E0.00617
G1 X119.906 Y196.217 E0.01415
G1 X119.467 Y196.226 E0.01379
G1 X119.020 Y196.163 E0.01415
G1 X118.830 Y196.113 E0.00617
G1 X118.410 Y195.946 E0.01415
G1 X118.022 Y195.715 E0.01415
G1 X117.866 Y195.595 E0.00617
G1 X117.544 Y195.279 E0.01415
G1 X117.283 Y194.926 E0.01379
G1 X117.075 Y194.525 E0.01415
G1 X116.945 Y194.129 E0.01306
G1 X116.874 Y193.684 E0.01415
G1 X116.874 Y193.244 E0.01379
G1 X116.943 Y192.810 E0.01379
G1 X117.084 Y192.381 E0.01415
G1 X117.168 Y192.203 E0.00617
G1 X117.406 Y191.820 E0.01415
G1 X117.695 Y191.488 E0.01379
G1 X118.041 Y191.198 E0.01415
G1 X118.206 Y191.091 E0.00617
G1 X118.622 Y190.887 E0.01452
G1 X118.807 Y190.822 E0.00617
G1 X119.248 Y190.724 E0.01415
G1 X119.687 Y190.697 E0.01379
G1 X120.124 Y190.741 E0.01378
G1 X120.561 Y190.856 E0.01415
G1 X120.754 Y190.933 E0.00653
G1 X120.941 Y191.025 E0.00653
G1 X121.320 Y191.271 E0.01415
G1 X121.654 Y191.574 E0.01415
G1 X121.783 Y191.723 E0.00617
G1 X122.037 Y192.096 E0.01415
G1 X122.198 Y192.440 E0.01190
G1 X122.539 Y192.280 F10800.000
;TYPE:External perimeter
G1 F1200.000
G1 X122.715 Y192.842 E0.01846
G1 X122.775 Y193.343 E0.01580
G1 X122.775 Y193.585 E0.00758
G1 X122.714 Y194.089 E0.01593
G1 X122.657 Y194.324 E0.00758
G1 X122.479 Y194.800 E0.01593
G1 X122.368 Y195.015 E0.00758
G1 X122.085 Y195.432 E0.01580
G1 X121.742 Y195.795 E0.01567
G1 X121.343 Y196.103 E0.01580
G1 X121.135 Y196.227 E0.00758
G1 X120.671 Y196.433 E0.01593
G1 X120.440 Y196.504 E0.00758
G1 X119.944 Y196.593 E0.01580
G1 X119.444 Y196.603 E0.01567
G1 X118.945 Y196.533 E0.01580
G1 X118.711 Y196.472 E0.00758
G1 X118.243 Y196.286 E0.01580
G1 X117.810 Y196.028 E0.01580
G1 X117.618 Y195.880 E0.00758
G1 X117.258 Y195.528 E0.01580
G1 X116.961 Y195.126 E0.01567
G1 X116.730 Y194.678 E0.01580
G1 X116.576 Y194.211 E0.01541
G1 X116.496 Y193.714 E0.01580
G1 X116.496 Y193.214 E0.01567
G1 X116.576 Y192.720 E0.01567
G1 X116.733 Y192.242 E0.01580
G1 X116.836 Y192.023 E0.00758
G1 X117.102 Y191.595 E0.01580
G1 X117.430 Y191.218 E0.01567
G1 X117.817 Y190.895 E0.01580
G1 X118.019 Y190.763 E0.00758
G1 X118.475 Y190.538 E0.01593
G1 X118.703 Y190.458 E0.00758
G1 X119.195 Y190.349 E0.01580
G1 X119.694 Y190.319 E0.01567
G1 X120.192 Y190.369 E0.01567
G1 X120.679 Y190.498 E0.01580
G1 X120.907 Y190.588 E0.00771
G1 X121.128 Y190.697 E0.00771
G1 X121.550 Y190.972 E0.01580
G1 X121.924 Y191.310 E0.01580
G1 X122.083 Y191.492 E0.00758
G1 X122.366 Y191.909 E0.01580
G1 X122.514 Y192.226 E0.01096
G1 X122.291 Y192.594 F10800.000
G1 X122.034 Y192.358
;TYPE:Solid infill
;WIDTH:0.424186
G1 F1200.000
G1 X121.425 Y191.748 E0.02732
G1 X121.147 Y191.496 E0.01190
G1 X120.801 Y191.272 E0.01306
G1 X120.640 Y191.192 E0.00571
G1 X120.472 Y191.125 E0.00572
G1 X120.188 Y191.050 E0.00931
G1 X122.048 Y192.910 E0.08339
M73 P3 R59
G1 X122.115 Y193.382 E0.01511
G1 X122.115 Y193.517 E0.00426
G1 X119.585 Y190.987 E0.11342
G1 X119.287 Y191.005 E0.00947
G1 X119.104 Y191.045 E0.00593
G1 X122.057 Y193.998 E0.13240
G1 X121.923 Y194.403 E0.01352
G1 X118.689 Y191.169 E0.14501
G1 X118.329 Y191.348 E0.01274
G1 X121.742 Y194.762 E0.15303
G1 X121.516 Y195.074 E0.01224
G1 X118.023 Y191.582 E0.15657
G1 X117.893 Y191.690 E0.00538
G1 X117.754 Y191.851 E0.00675
G1 X121.247 Y195.344 E0.15661
G1 X120.939 Y195.576 E0.01221
G1 X117.526 Y192.163 E0.15302
G1 X117.417 Y192.338 E0.00655
G1 X117.338 Y192.514 E0.00611
G1 X120.577 Y195.753 E0.14519
G1 X120.439 Y195.813 E0.00477
G1 X120.167 Y195.882 E0.00889
G1 X117.211 Y192.926 E0.13255
G1 X117.156 Y193.266 E0.01093
G1 X117.156 Y193.411 E0.00457
G1 X119.684 Y195.939 E0.11334
G1 X119.484 Y195.943 E0.00636
G1 X119.095 Y195.888 E0.01245
G1 X117.211 Y194.005 E0.08443
G1 X117.334 Y194.410 E0.01342
G1 X117.523 Y194.776 E0.01306
G1 X117.750 Y195.083 E0.01211
G1 X118.546 Y195.879 E0.03567
;WIPE_START
G1 F8640.000
G1 X117.750 Y195.083 E-0.25980
G1 X117.523 Y194.776 E-0.08817
G1 X117.334 Y194.410 E-0.09510
G1 X117.211 Y194.005 E-0.09772
G1 X117.883 Y194.676 E-0.21920
;WIPE_END
G1 E-0.04000 F2100.000
G1 Z0.600 F10800.000
G1 X138.380 Y101.224
G1 Z0.200
G1 E0.80000 F2100.000
;TYPE:Perimeter
;WIDTH:0.42
G1 F1200.000
G1 X137.764 Y101.087 E0.01981
G1 X137.414 Y100.965 E0.01161
G1 X137.087 Y100.819 E0.01122
G1 X136.526 Y100.484 E0.02049
G1 X136.004 Y100.049 E0.02133
G1 X135.752 Y99.780 E0.01154
G1 X135.364 Y99.255 E0.02046
G1 X135.045 Y98.641 E0.02169
G1 X134.833 Y97.993 E0.02138
G1 X134.762 Y97.633 E0.01152
G1 X134.712 Y97.005 E0.01974
G1 X134.726 Y96.635 E0.01162
G1 X134.770 Y96.281 E0.01119
G1 X134.921 Y95.658 E0.02009
G1 X135.051 Y95.310 E0.01164
G1 X135.359 Y94.716 E0.02098
G1 X135.566 Y94.413 E0.01152
G1 X135.980 Y93.937 E0.01976
G1 X136.253 Y93.689 E0.01159
G1 X136.537 Y93.471 E0.01122
G1 X137.120 Y93.126 E0.02123
G1 X137.718 Y92.889 E0.02017
G1 X138.062 Y92.797 E0.01116
G1 X138.403 Y92.735 E0.01085
G1 X138.770 Y92.699 E0.01158
G1 X139.401 Y92.712 E0.01980
G1 X139.765 Y92.762 E0.01152
G1 X140.412 Y92.932 E0.02095
G1 X140.756 Y93.069 E0.01163
G1 X141.331 Y93.381 E0.02050
G1 X141.879 Y93.801 E0.02165
G1 X142.351 Y94.305 E0.02166
G1 X142.718 Y94.845 E0.02046
G1 X142.888 Y95.172 E0.01157
G1 X143.126 Y95.812 E0.02139
G1 X143.255 Y96.451 E0.02046
G1 X143.285 Y96.818 E0.01155
G1 X143.257 Y97.499 E0.02135
G1 X143.129 Y98.139 E0.02046
G1 X143.014 Y98.489 E0.01157
G1 X142.725 Y99.107 E0.02139
G1 X142.358 Y99.647 E0.02047
G1 X142.125 Y99.917 E0.01118
G1 X141.860 Y100.175 E0.01160
G1 X141.342 Y100.574 E0.02049
G1 X140.733 Y100.904 E0.02172
G1 X140.102 Y101.125 E0.02097
G1 X139.743 Y101.204 E0.01153
G1 X139.105 Y101.268 E0.02011
G1 X138.748 Y101.261 E0.01119
G1 X138.440 Y101.230 E0.00970
G1 X138.478 Y100.855 F10800.000
;TYPE:External perimeter
G1 F1200.000
G1 X137.867 Y100.723 E0.01960
G1 X137.553 Y100.614 E0.01042
G1 X137.261 Y100.483 E0.01003
G1 X136.745 Y100.176 E0.01886
G1 X136.263 Y99.774 E0.01967
G1 X136.042 Y99.538 E0.01013
G1 X135.685 Y99.055 E0.01883
G1 X135.394 Y98.495 E0.01979
G1 X135.199 Y97.898 E0.01970
G1 X135.136 Y97.581 E0.01012
G1 X135.090 Y96.997 E0.01836
G1 X135.103 Y96.665 E0.01043
G1 X135.141 Y96.348 E0.01000
G1 X135.282 Y95.769 E0.01870
G1 X135.396 Y95.463 E0.01022
G1 X135.683 Y94.910 E0.01953
G1 X135.865 Y94.644 E0.01012
G1 X136.250 Y94.202 E0.01838
G1 X136.495 Y93.978 E0.01040
G1 X136.749 Y93.784 E0.01001
G1 X137.287 Y93.466 E0.01959
G1 X137.837 Y93.248 E0.01856
G1 X138.145 Y93.166 E0.01000
G1 X138.455 Y93.109 E0.00988
G1 X138.785 Y93.077 E0.01039
G1 X139.372 Y93.089 E0.01842
G1 X139.692 Y93.132 E0.01011
G1 X140.293 Y93.291 E0.01951
G1 X140.596 Y93.411 E0.01021
G1 X141.125 Y93.698 E0.01887
G1 X141.625 Y94.082 E0.01976
G1 X142.056 Y94.541 E0.01976
G1 X142.394 Y95.038 E0.01884
G1 X142.543 Y95.326 E0.01015
G1 X142.763 Y95.915 E0.01973
G1 X142.881 Y96.504 E0.01883
G1 X142.907 Y96.826 E0.01013
G1 X142.882 Y97.454 E0.01969
G1 X142.763 Y98.042 E0.01883
G1 X142.663 Y98.350 E0.01015
G1 X142.396 Y98.920 E0.01973
G1 X142.059 Y99.417 E0.01884
G1 X141.850 Y99.658 E0.01000
G1 X141.613 Y99.890 E0.01041
G1 X141.136 Y100.257 E0.01885
G1 X140.580 Y100.558 E0.01983
G1 X139.999 Y100.762 E0.01931
G1 X139.684 Y100.831 E0.01012
G1 X139.089 Y100.890 E0.01872
G1 X138.538 Y100.861 E0.01731
G1 X138.234 Y101.171 F10800.000
;WIPE_START
G1 F8640.000
G1 X137.867 Y100.723 E-0.15811
G1 X137.553 Y100.614 E-0.07677
G1 X137.261 Y100.483 E-0.07384
G1 X136.745 Y100.176 E-0.13888
G1 X136.263 Y99.774 E-0.14486
G1 X136.042 Y99.538 E-0.07456
