; generated by PrusaSlicer 2.3.3+win64 on 2021-12-07 at 04:43:16 UTC

; 

; external perimeters extrusion width = 0.45mm
; perimeters extrusion width = 0.45mm
; infill extrusion width = 0.45mm
; solid infill extrusion width = 0.45mm
; top infill extrusion width = 0.40mm
; first layer extrusion width = 0.42mm

M73 P0 R83
M201 X9000 Y9000 Z500 E10000 ; sets maximum accelerations, mm/sec^2
M203 X500 Y500 Z12 E120 ; sets maximum feedrates, mm/sec
M204 P2000 R1500 T2000 ; sets acceleration (P, T) and retract acceleration (R), mm/sec^2
M205 X10.00 Y10.00 Z0.20 E4.50 ; sets the jerk limits, mm/sec
M205 S0 T0 ; sets the minimum extruding and travel feed rate, mm/sec
M107
;TYPE:Custom
M862.3 P "MK2.5S" ; printer model check
M862.1 P0.4 ; nozzle diameter check
M115 U3.10.0 ; tell printer latest fw version
G90 ; use absolute coordinates
M83  ; extruder relative mode
M104 S215 ; set extruder temp
M140 S60 ; set bed temp
M190 S60 ; wait for bed temp
M109 S215 ; wait for extruder temp
G28 W ; home all without mesh bed level
G80 ; mesh bed leveling
G1 Y-3.0 F1000.0 ; go outside print area
G92 E0.0
G1 X60.0 E9.0 F1000.0 ; intro line
G1 X100.0 E12.5 F1000.0 ; intro line
G92 E0.0
G21 ; set units to millimeters
G90 ; use absolute coordinates
M83 ; use relative distances for extrusion
M900 K0.05 ; Filament gcode LA 1.5
M900 K30 ; Filament gcode LA 1.0
;LAYER_CHANGE
;Z:0.2
;HEIGHT:0.2
;BEFORE_LAYER_CHANGE
G92 E0.0
;0.2


G1 E-0.80000 F2100.000
G1 Z0.400 F10800.000
;AFTER_LAYER_CHANGE
;0.2
G1 X135.906 Y2.802
G1 Z0.200
G1 E0.80000 F2100.000
M204 S1000
;TYPE:Skirt
;WIDTH:0.42
G1 F1200.000
G1 X136.672 Y3.311 E0.02884
G1 X137.188 Y4.072 E0.02884
G1 X137.377 Y4.972 E0.02884
G1 X137.366 Y205.232 E6.27900
G1 X137.148 Y206.017 E0.02555
G1 X136.679 Y206.683 E0.02555
G1 X136.011 Y207.151 E0.02555
G1 X135.225 Y207.366 E0.02555
G1 X114.768 Y207.366 E0.64143
G1 X113.935 Y207.125 E0.02720
G1 X113.246 Y206.604 E0.02708
G1 X112.788 Y205.872 E0.02708
G1 X112.623 Y205.024 E0.02708
G1 X112.634 Y4.768 E6.27888
G1 X112.852 Y3.983 E0.02555
G1 X113.321 Y3.317 E0.02555
G1 X113.989 Y2.849 E0.02555
G1 X114.775 Y2.634 E0.02555
G1 X135.004 Y2.623 E0.63427
G1 X135.847 Y2.791 E0.02696
; printing object arm2.0.stl id:0 copy 0
;WIPE_START
G1 F8640.000
G1 X136.672 Y3.311 E-0.22525
G1 X137.188 Y4.072 E-0.21237
G1 X137.377 Y4.972 E-0.21237
G1 X137.377 Y5.449 E-0.11000
;WIPE_END
G1 E-0.04000 F2100.000
G1 Z0.600 F10800.000
G1 X126.203 Y102.045
G1 Z0.200
G1 E0.80000 F2100.000
;TYPE:Perimeter
G1 F1200.000
G1 X126.748 Y102.332 E0.01931
G1 X127.228 Y102.717 E0.01931
G1 X127.625 Y103.188 E0.01931
G1 X127.925 Y103.726 E0.01931
G1 X128.115 Y104.312 E0.01931
G1 X128.189 Y104.923 E0.01931
G1 X128.145 Y105.537 E0.01931
G1 X127.983 Y106.131 E0.01931
G1 X127.710 Y106.683 E0.01931
G1 X127.336 Y107.173 E0.01931
G1 X126.875 Y107.581 E0.01931
G1 X126.344 Y107.893 E0.01931
G1 X125.763 Y108.097 E0.01931
G1 X125.154 Y108.186 E0.01931
G1 X124.539 Y108.157 E0.01930
G1 X123.941 Y108.009 E0.01931
G1 X123.383 Y107.750 E0.01931
G1 X122.885 Y107.388 E0.01931
G1 X122.465 Y106.937 E0.01931
G1 X122.140 Y106.414 E0.01931
G1 X121.922 Y105.838 E0.01931
G1 X121.818 Y105.231 E0.01930
G1 X121.833 Y104.616 E0.01931
G1 X121.966 Y104.014 E0.01931
G1 X122.212 Y103.450 E0.01931
G1 X122.562 Y102.943 E0.01931
G1 X123.002 Y102.513 E0.01931
G1 X123.517 Y102.175 E0.01931
G1 X124.075 Y101.949 E0.01886
G1 X124.401 Y101.868 E0.01054
G1 X124.970 Y101.812 E0.01791
G1 X125.306 Y101.827 E0.01056
G1 X125.627 Y101.873 E0.01015
G1 X126.145 Y102.028 E0.01698
G1 X126.038 Y102.390 F10800.000
;TYPE:External perimeter
G1 F1200.000
G1 X126.541 Y102.649 E0.01774
G1 X126.964 Y102.988 E0.01701
G1 X127.314 Y103.403 E0.01701
G1 X127.577 Y103.877 E0.01701
G1 X127.745 Y104.393 E0.01701
G1 X127.810 Y104.932 E0.01701
G1 X127.771 Y105.473 E0.01701
G1 X127.629 Y105.997 E0.01701
G1 X127.388 Y106.483 E0.01702
G1 X127.059 Y106.915 E0.01701
G1 X126.652 Y107.274 E0.01701
G1 X126.185 Y107.550 E0.01702
G1 X125.673 Y107.730 E0.01701
G1 X125.136 Y107.808 E0.01702
G1 X124.594 Y107.782 E0.01701
G1 X124.067 Y107.652 E0.01701
G1 X123.575 Y107.423 E0.01701
G1 X123.136 Y107.104 E0.01701
G1 X122.766 Y106.707 E0.01702
G1 X122.480 Y106.246 E0.01701
G1 X122.288 Y105.739 E0.01702
G1 X122.196 Y105.204 E0.01701
G1 X122.209 Y104.661 E0.01701
G1 X122.326 Y104.131 E0.01701
G1 X122.543 Y103.634 E0.01701
G1 X122.851 Y103.187 E0.01701
G1 X123.240 Y102.808 E0.01701
G1 X123.694 Y102.511 E0.01701
G1 X124.191 Y102.308 E0.01685
G1 X124.465 Y102.241 E0.00883
G1 X124.980 Y102.190 E0.01623
G1 X125.271 Y102.203 E0.00913
G1 X125.545 Y102.243 E0.00869
G1 X125.980 Y102.372 E0.01424
G1 X126.356 Y102.147 F10800.000
;WIPE_START
G1 F8640.000
G1 X126.541 Y102.649 E-0.14425
G1 X126.964 Y102.988 E-0.12530
G1 X127.314 Y103.403 E-0.12530
G1 X127.577 Y103.877 E-0.12530
G1 X127.745 Y104.393 E-0.12530
G1 X127.805 Y104.886 E-0.11456
;WIPE_END
G1 E-0.04000 F2100.000
G1 Z0.600 F10800.000
G1 X134.213 Y204.213
G1 Z0.200
G1 E0.80000 F2100.000
;TYPE:Perimeter
G1 F1200.000
G1 X115.787 Y204.213 E0.57773
M73 P0 R82
G1 X115.787 Y5.787 E6.22150
G1 X134.213 Y5.787 E0.57773
G1 X134.213 Y204.153 E6.21962
M73 P1 R82
G1 X134.590 Y204.590 F10800.000
;TYPE:External perimeter
G1 F1200.000
G1 X115.410 Y204.590 E0.60138
G1 X115.410 Y5.410 E6.24515
G1 X134.590 Y5.410 E0.60138
G1 X134.590 Y204.530 E6.24327
G1 X134.237 Y204.401 F10800.000
;WIPE_START
G1 F8640.000
G1 X131.299 Y204.540 E-0.76000
;WIPE_END
G1 E-0.04000 F2100.000
G1 Z0.600 F10800.000
G1 X133.336 Y5.900
G1 Z0.200
G1 E0.80000 F2100.000
;TYPE:Solid infill
;WIDTH:0.420872
G1 F1200.000
G1 X133.930 Y6.495 E0.02642
G1 X133.930 Y7.029 E0.01680
G1 X132.971 Y6.070 E0.04263
G1 X132.436 Y6.070 E0.01680
G1 X133.930 Y7.564 E0.06639
G1 X133.930 Y8.098 E0.01680
G1 X131.902 Y6.070 E0.09014
G1 X131.367 Y6.070 E0.01680
G1 X133.930 Y8.633 E0.11390
G1 X133.930 Y9.167 E0.01680
G1 X130.833 Y6.070 E0.13766
G1 X130.298 Y6.070 E0.01680
G1 X133.930 Y9.702 E0.16141
G1 X133.930 Y10.236 E0.01680
G1 X129.764 Y6.070 E0.18517
G1 X129.229 Y6.070 E0.01680
G1 X133.930 Y10.771 E0.20892
G1 X133.930 Y11.305 E0.01680
G1 X128.695 Y6.070 E0.23268
G1 X128.160 Y6.070 E0.01680
G1 X133.930 Y11.840 E0.25643
G1 X133.930 Y12.374 E0.01680
G1 X127.626 Y6.070 E0.28019
G1 X127.091 Y6.070 E0.01680
G1 X133.930 Y12.909 E0.30395
G1 X133.930 Y13.443 E0.01680
G1 X126.557 Y6.070 E0.32770
G1 X126.022 Y6.070 E0.01680
G1 X133.930 Y13.978 E0.35146
G1 X133.930 Y14.512 E0.01680
G1 X125.488 Y6.070 E0.37521
G1 X124.953 Y6.070 E0.01680
G1 X133.930 Y15.047 E0.39897
G1 X133.930 Y15.581 E0.01680
G1 X124.419 Y6.070 E0.42272
G1 X123.884 Y6.070 E0.01680
G1 X133.930 Y16.116 E0.44648
G1 X133.930 Y16.650 E0.01680
G1 X123.350 Y6.070 E0.47024
G1 X122.815 Y6.070 E0.01680
G1 X133.930 Y17.185 E0.49399
G1 X133.930 Y17.719 E0.01680
G1 X122.281 Y6.070 E0.51775
G1 X121.746 Y6.070 E0.01680
G1 X133.930 Y18.254 E0.54150
G1 X133.930 Y18.788 E0.01680
G1 X121.212 Y6.070 E0.56526
G1 X120.677 Y6.070 E0.01680
G1 X133.930 Y19.323 E0.58901
G1 X133.930 Y19.857 E0.01680
G1 X120.143 Y6.070 E0.61277
G1 X119.608 Y6.070 E0.01680
G1 X133.930 Y20.392 E0.63653
G1 X133.930 Y20.926 E0.01680
G1 X119.074 Y6.070 E0.66028
M73 P1 R81
G1 X118.539 Y6.070 E0.01680
G1 X133.930 Y21.461 E0.68404
G1 X133.930 Y21.995 E0.01680
G1 X118.005 Y6.070 E0.70779
G1 X117.470 Y6.070 E0.01680
G1 X133.930 Y22.530 E0.73155
G1 X133.930 Y23.064 E0.01680
G1 X116.936 Y6.070 E0.75530
G1 X116.401 Y6.070 E0.01680
G1 X133.930 Y23.599 E0.77906
M73 P2 R81
G1 X133.930 Y24.133 E0.01680
G1 X116.070 Y6.273 E0.79379
G1 X116.070 Y6.808 E0.01680
G1 X133.930 Y24.668 E0.79379
G1 X133.930 Y25.202 E0.01680
G1 X116.070 Y7.342 E0.79379
G1 X116.070 Y7.877 E0.01680
G1 X133.930 Y25.737 E0.79379
G1 X133.930 Y26.271 E0.01680
G1 X116.070 Y8.411 E0.79379
G1 X116.070 Y8.946 E0.01680
G1 X133.930 Y26.806 E0.79379
G1 X133.930 Y27.340 E0.01680
G1 X116.070 Y9.480 E0.79379
G1 X116.070 Y10.015 E0.01680
G1 X133.930 Y27.875 E0.79379
G1 X133.930 Y28.409 E0.01680
G1 X116.070 Y10.549 E0.79379
G1 X116.070 Y11.084 E0.01680
G1 X133.930 Y28.944 E0.79379
G1 X133.930 Y29.478 E0.01680
G1 X116.070 Y11.618 E0.79379
G1 X116.070 Y12.153 E0.01680
G1 X133.930 Y30.013 E0.79379
G1 X133.930 Y30.547 E0.01680
G1 X116.070 Y12.687 E0.79379
G1 X116.070 Y13.222 E0.01680
G1 X133.930 Y31.082 E0.79379
G1 X133.930 Y31.616 E0.01680
G1 X116.070 Y13.756 E0.79379
G1 X116.070 Y14.291 E0.01680
G1 X133.930 Y32.151 E0.79379
G1 X133.930 Y32.685 E0.01680
G1 X116.070 Y14.825 E0.79379
G1 X116.070 Y15.360 E0.01680
G1 X133.930 Y33.220 E0.79379
G1 X133.930 Y33.754 E0.01680
G1 X116.070 Y15.894 E0.79379
G1 X116.070 Y16.429 E0.01680
G1 X133.930 Y34.289 E0.79379
G1 X133.930 Y34.823 E0.01680
G1 X116.070 Y16.963 E0.79379
G1 X116.070 Y17.498 E0.01680
G1 X133.930 Y35.358 E0.79379
G1 X133.930 Y35.892 E0.01680
G1 X116.070 Y18.032 E0.79379
G1 X116.070 Y18.567 E0.01680
G1 X133.930 Y36.427 E0.79379
G1 X133.930 Y36.961 E0.01680
G1 X116.070 Y19.101 E0.79379
G1 X116.070 Y19.636 E0.01680
G1 X133.930 Y37.496 E0.79379
G1 X133.930 Y38.030 E0.01680
G1 X116.070 Y20.170 E0.79379
G1 X116.070 Y20.705 E0.01680
G1 X133.930 Y38.565 E0.79379
G1 X133.930 Y39.099 E0.01680
G1 X116.070 Y21.239 E0.79379
G1 X116.070 Y21.774 E0.01680
G1 X133.930 Y39.634 E0.79379
G1 X133.930 Y40.168 E0.01680
G1 X116.070 Y22.308 E0.79379
G1 X116.070 Y22.843 E0.01680
G1 X133.930 Y40.703 E0.79379
G1 X133.930 Y41.237 E0.01680
G1 X116.070 Y23.377 E0.79379
G1 X116.070 Y23.912 E0.01680
G1 X133.930 Y41.772 E0.79379
G1 X133.930 Y42.306 E0.01680
G1 X116.070 Y24.446 E0.79379
G1 X116.070 Y24.981 E0.01680
G1 X133.930 Y42.841 E0.79379
G1 X133.930 Y43.375 E0.01680
G1 X116.070 Y25.515 E0.79379
G1 X116.070 Y26.050 E0.01680
G1 X133.930 Y43.910 E0.79379
M73 P3 R81
G1 X133.930 Y44.445 E0.01680
G1 X116.070 Y26.584 E0.79379
G1 X116.070 Y27.119 E0.01680
G1 X133.930 Y44.979 E0.79379
G1 X133.930 Y45.514 E0.01680
G1 X116.070 Y27.653 E0.79379
M73 P3 R80
G1 X116.070 Y28.188 E0.01680
G1 X133.930 Y46.048 E0.79379
G1 X133.930 Y46.583 E0.01680
G1 X116.070 Y28.722 E0.79379
G1 X116.070 Y29.257 E0.01680
G1 X133.930 Y47.117 E0.79379
G1 X133.930 Y47.652 E0.01680
G1 X116.070 Y29.791 E0.79379
G1 X116.070 Y30.326 E0.01680
G1 X133.930 Y48.186 E0.79379
G1 X133.930 Y48.721 E0.01680
G1 X116.070 Y30.860 E0.79379
G1 X116.070 Y31.395 E0.01680
G1 X133.930 Y49.255 E0.79379
G1 X133.930 Y49.790 E0.01680
G1 X116.070 Y31.929 E0.79379
G1 X116.070 Y32.464 E0.01680
G1 X133.930 Y50.324 E0.79379
G1 X133.930 Y50.859 E0.01680
G1 X116.070 Y32.998 E0.79379
G1 X116.070 Y33.533 E0.01680
G1 X133.930 Y51.393 E0.79379
G1 X133.930 Y51.928 E0.01680
G1 X116.070 Y34.067 E0.79379
G1 X116.070 Y34.602 E0.01680
G1 X133.930 Y52.462 E0.79379
G1 X133.930 Y52.997 E0.01680
G1 X116.070 Y35.136 E0.79379
G1 X116.070 Y35.671 E0.01680
G1 X133.930 Y53.531 E0.79379
G1 X133.930 Y54.066 E0.01680
G1 X116.070 Y36.205 E0.79379
G1 X116.070 Y36.740 E0.01680
G1 X133.930 Y54.600 E0.79379
G1 X133.930 Y55.135 E0.01680
G1 X116.070 Y37.274 E0.79379
G1 X116.070 Y37.809 E0.01680
G1 X133.930 Y55.669 E0.79379
G1 X133.930 Y56.204 E0.01680
G1 X116.070 Y38.343 E0.79379
G1 X116.070 Y38.878 E0.01680
G1 X133.930 Y56.738 E0.79379
G1 X133.930 Y57.273 E0.01680
G1 X116.070 Y39.412 E0.79379
G1 X116.070 Y39.947 E0.01680
G1 X133.930 Y57.807 E0.79379
G1 X133.930 Y58.342 E0.01680
G1 X116.070 Y40.481 E0.79379
G1 X116.070 Y41.016 E0.01680
G1 X133.930 Y58.876 E0.79379
G1 X133.930 Y59.411 E0.01680
G1 X116.070 Y41.550 E0.79379
G1 X116.070 Y42.085 E0.01680
G1 X133.930 Y59.945 E0.79379
G1 X133.930 Y60.480 E0.01680
G1 X116.070 Y42.619 E0.79379
G1 X116.070 Y43.154 E0.01680
G1 X133.930 Y61.014 E0.79379
G1 X133.930 Y61.549 E0.01680
G1 X116.070 Y43.688 E0.79379
G1 X116.070 Y44.223 E0.01680
G1 X133.930 Y62.083 E0.79379
G1 X133.930 Y62.618 E0.01680
G1 X116.070 Y44.757 E0.79379
G1 X116.070 Y45.292 E0.01680
G1 X133.930 Y63.152 E0.79379
G1 X133.930 Y63.687 E0.01680
G1 X116.070 Y45.826 E0.79379
G1 X116.070 Y46.361 E0.01680
G1 X133.930 Y64.221 E0.79379
G1 X133.930 Y64.756 E0.01680
G1 X116.070 Y46.895 E0.79379
M73 P4 R80
G1 X116.070 Y47.430 E0.01680
G1 X133.930 Y65.290 E0.79379
G1 X133.930 Y65.825 E0.01680
G1 X116.070 Y47.964 E0.79379
G1 X116.070 Y48.499 E0.01680
G1 X133.930 Y66.359 E0.79379
G1 X133.930 Y66.894 E0.01680
G1 X116.070 Y49.033 E0.79379
G1 X116.070 Y49.568 E0.01680
G1 X133.930 Y67.428 E0.79379
G1 X133.930 Y67.963 E0.01680
G1 X116.070 Y50.102 E0.79379
G1 X116.070 Y50.637 E0.01680
G1 X133.930 Y68.497 E0.79379
G1 X133.930 Y69.032 E0.01680
G1 X116.070 Y51.171 E0.79379
G1 X116.070 Y51.706 E0.01680
G1 X133.930 Y69.566 E0.79379
G1 X133.930 Y70.101 E0.01680
G1 X116.070 Y52.240 E0.79379
G1 X116.070 Y52.775 E0.01680
G1 X133.930 Y70.635 E0.79379
M73 P4 R79
G1 X133.930 Y71.170 E0.01680
G1 X116.070 Y53.309 E0.79379
G1 X116.070 Y53.844 E0.01680
G1 X133.930 Y71.704 E0.79379
G1 X133.930 Y72.239 E0.01680
G1 X116.070 Y54.379 E0.79379
G1 X116.070 Y54.913 E0.01680
G1 X133.930 Y72.773 E0.79379
G1 X133.930 Y73.308 E0.01680
G1 X116.070 Y55.448 E0.79379
G1 X116.070 Y55.982 E0.01680
G1 X133.930 Y73.842 E0.79379
G1 X133.930 Y74.377 E0.01680
G1 X116.070 Y56.517 E0.79379
G1 X116.070 Y57.051 E0.01680
G1 X133.930 Y74.911 E0.79379
G1 X133.930 Y75.446 E0.01680
G1 X116.070 Y57.586 E0.79379
G1 X116.070 Y58.120 E0.01680
G1 X133.930 Y75.980 E0.79379
G1 X133.930 Y76.515 E0.01680
G1 X116.070 Y58.655 E0.79379
G1 X116.070 Y59.189 E0.01680
G1 X133.930 Y77.049 E0.79379
G1 X133.930 Y77.584 E0.01680
G1 X116.070 Y59.724 E0.79379
G1 X116.070 Y60.258 E0.01680
G1 X133.930 Y78.118 E0.79379
G1 X133.930 Y78.653 E0.01680
G1 X116.070 Y60.793 E0.79379
G1 X116.070 Y61.327 E0.01680
G1 X133.930 Y79.187 E0.79379
G1 X133.930 Y79.722 E0.01680
G1 X116.070 Y61.862 E0.79379
G1 X116.070 Y62.396 E0.01680
G1 X133.930 Y80.256 E0.79379
G1 X133.930 Y80.791 E0.01680
G1 X116.070 Y62.931 E0.79379
G1 X116.070 Y63.465 E0.01680
G1 X133.930 Y81.325 E0.79379
G1 X133.930 Y81.860 E0.01680
G1 X116.070 Y64.000 E0.79379
G1 X116.070 Y64.534 E0.01680
G1 X133.930 Y82.394 E0.79379
G1 X133.930 Y82.929 E0.01680
G1 X116.070 Y65.069 E0.79379
G1 X116.070 Y65.603 E0.01680
G1 X133.930 Y83.463 E0.79379
G1 X133.930 Y83.998 E0.01680
G1 X116.070 Y66.138 E0.79379
G1 X116.070 Y66.672 E0.01680
G1 X133.930 Y84.532 E0.79379
G1 X133.930 Y85.067 E0.01680
G1 X116.070 Y67.207 E0.79379
M73 P5 R79
G1 X116.070 Y67.741 E0.01680
G1 X133.930 Y85.601 E0.79379
G1 X133.930 Y86.136 E0.01680
G1 X116.070 Y68.276 E0.79379
G1 X116.070 Y68.810 E0.01680
G1 X133.930 Y86.670 E0.79379
G1 X133.930 Y87.205 E0.01680
G1 X116.070 Y69.345 E0.79379
G1 X116.070 Y69.879 E0.01680
G1 X133.930 Y87.739 E0.79379
G1 X133.930 Y88.274 E0.01680
G1 X116.070 Y70.414 E0.79379
G1 X116.070 Y70.948 E0.01680
G1 X133.930 Y88.808 E0.79379
G1 X133.930 Y89.343 E0.01680
G1 X116.070 Y71.483 E0.79379
G1 X116.070 Y72.017 E0.01680
G1 X133.930 Y89.877 E0.79379
G1 X133.930 Y90.412 E0.01680
G1 X116.070 Y72.552 E0.79379
G1 X116.070 Y73.086 E0.01680
G1 X133.930 Y90.946 E0.79379
G1 X133.930 Y91.481 E0.01680
G1 X116.070 Y73.621 E0.79379
G1 X116.070 Y74.155 E0.01680
G1 X133.930 Y92.015 E0.79379
G1 X133.930 Y92.550 E0.01680
G1 X116.070 Y74.690 E0.79379
G1 X116.070 Y75.224 E0.01680
G1 X133.930 Y93.084 E0.79379
G1 X133.930 Y93.619 E0.01680
G1 X116.070 Y75.759 E0.79379
G1 X116.070 Y76.293 E0.01680
G1 X133.930 Y94.153 E0.79379
G1 X133.930 Y94.688 E0.01680
G1 X116.070 Y76.828 E0.79379
G1 X116.070 Y77.362 E0.01680
G1 X133.930 Y95.222 E0.79379
M73 P5 R78
G1 X133.930 Y95.757 E0.01680
G1 X116.070 Y77.897 E0.79379
G1 X116.070 Y78.431 E0.01680
G1 X133.930 Y96.291 E0.79379
G1 X133.930 Y96.826 E0.01680
G1 X116.070 Y78.966 E0.79379
G1 X116.070 Y79.500 E0.01680
G1 X133.930 Y97.360 E0.79379
G1 X133.930 Y97.895 E0.01680
G1 X116.070 Y80.035 E0.79379
G1 X116.070 Y80.569 E0.01680
G1 X133.930 Y98.429 E0.79379
G1 X133.930 Y98.964 E0.01680
G1 X116.070 Y81.104 E0.79379
G1 X116.070 Y81.638 E0.01680
G1 X133.930 Y99.499 E0.79379
G1 X133.930 Y100.033 E0.01680
G1 X116.070 Y82.173 E0.79379
G1 X116.070 Y82.707 E0.01680
G1 X133.930 Y100.568 E0.79379
G1 X133.930 Y101.102 E0.01680
G1 X116.070 Y83.242 E0.79379
G1 X116.070 Y83.776 E0.01680
G1 X133.930 Y101.637 E0.79379
G1 X133.930 Y102.171 E0.01680
