; generated by PrusaSlicer 2.3.3+win64 on 2022-02-27 at 18:36:06 UTC

; 

; external perimeters extrusion width = 0.45mm
; perimeters extrusion width = 0.45mm
; infill extrusion width = 0.45mm
; solid infill extrusion width = 0.45mm
; top infill extrusion width = 0.40mm
; support material extrusion width = 0.35mm
; first layer extrusion width = 0.42mm

M73 P0 R37
M201 X9000 Y9000 Z500 E10000 ; sets maximum accelerations, mm/sec^2
M203 X500 Y500 Z12 E120 ; sets maximum feedrates, mm/sec
M204 P2000 R1500 T2000 ; sets acceleration (P, T) and retract acceleration (R), mm/sec^2
M205 X10.00 Y10.00 Z0.20 E4.50 ; sets the jerk limits, mm/sec
M205 S0 T0 ; sets the minimum extruding and travel feed rate, mm/sec
M107
;TYPE:Custom
M862.3 P "MK2.5S" ; printer model check
M862.1 P0.4 ; nozzle diameter check
M115 U3.10.0 ; tell printer latest fw version
G90 ; use absolute coordinates
M83  ; extruder relative mode
M104 S215 ; set extruder temp
M140 S60 ; set bed temp
M190 S60 ; wait for bed temp
M109 S215 ; wait for extruder temp
G28 W ; home all without mesh bed level
G80 ; mesh bed leveling
G1 Y-3.0 F1000.0 ; go outside print area
G92 E0.0
G1 X60.0 E9.0 F1000.0 ; intro line
G1 X100.0 E12.5 F1000.0 ; intro line
G92 E0.0
G21 ; set units to millimeters
G90 ; use absolute coordinates
M83 ; use relative distances for extrusion
M900 K0.05 ; Filament gcode LA 1.5
M900 K30 ; Filament gcode LA 1.0
;LAYER_CHANGE
;Z:0.2
;HEIGHT:0.2
;BEFORE_LAYER_CHANGE
G92 E0.0
;0.2


G1 E-0.80000 F2100.000
G1 Z0.400 F10800.000
;AFTER_LAYER_CHANGE
;0.2
G1 X33.576 Y103.074
G1 Z0.200
G1 E0.80000 F2100.000
M204 S1000
;TYPE:Skirt
;WIDTH:0.42
G1 F1200.000
G1 X117.416 Y85.367 E2.68672
G1 X128.797 Y85.327 E0.35683
G1 X132.623 Y85.375 E0.11999
G1 X215.989 Y102.938 E2.67125
G1 X216.491 Y103.104 E0.01657
G1 X217.035 Y103.450 E0.02024
G1 X217.467 Y103.930 E0.02024
G1 X217.753 Y104.509 E0.02024
G1 X217.873 Y105.143 E0.02024
G1 X217.876 Y125.229 E0.62977
G1 X217.818 Y125.727 E0.01574
G1 X217.659 Y126.199 E0.01562
G1 X217.297 Y126.761 E0.02095
G1 X216.790 Y127.202 E0.02107
G1 X216.180 Y127.483 E0.02107
G1 X215.515 Y127.583 E0.02107
G1 X34.501 Y127.583 E5.67558
M73 P1 R37
G1 X33.814 Y127.481 E0.02178
G1 X33.185 Y127.186 E0.02178
G1 X32.672 Y126.724 E0.02166
G1 X32.311 Y126.130 E0.02178
G1 X32.124 Y125.226 E0.02896
G1 X32.127 Y105.134 E0.62996
G1 X32.255 Y104.486 E0.02071
G1 X32.558 Y103.895 E0.02083
G1 X33.009 Y103.413 E0.02071
G1 X33.525 Y103.105 E0.01883
; printing object Merged id:1 copy 0
;WIPE_START
G1 F8640.000
G1 X36.745 Y102.424 E-0.76000
;WIPE_END
G1 E-0.04000 F2100.000
G1 Z0.600 F10800.000
G1 X34.501 Y125.206
G1 Z0.200
G1 E0.80000 F2100.000
;TYPE:Support material
G1 F1200.000
G1 X34.501 Y105.264 E0.62527
G1 X35.255 Y105.264 E0.02365
G1 X35.255 Y125.036 E0.61995
G1 X36.009 Y125.036 E0.02365
G1 X36.009 Y105.264 E0.61995
G1 X36.763 Y105.264 E0.02365
G1 X36.763 Y125.036 E0.61995
G1 X37.518 Y125.036 E0.02365
G1 X37.518 Y105.264 E0.61995
G1 X38.272 Y105.264 E0.02365
G1 X38.272 Y125.036 E0.61995
G1 X39.026 Y125.036 E0.02365
G1 X39.026 Y105.264 E0.61995
G1 X39.780 Y105.264 E0.02365
G1 X39.780 Y125.036 E0.61995
G1 X40.534 Y125.036 E0.02365
G1 X40.534 Y105.264 E0.61995
G1 X41.288 Y105.264 E0.02365
G1 X41.288 Y125.206 E0.62527
G1 X49.584 Y125.206 F10800.000
G1 F1200.000
G1 X49.584 Y117.583 E0.23900
G1 X49.224 Y118.001 E0.01730
G1 X48.830 Y118.345 E0.01639
G1 X48.830 Y125.036 E0.20980
G1 X48.076 Y125.036 E0.02365
G1 X48.076 Y118.806 E0.19535
G1 X47.615 Y118.991 E0.01557
G1 X47.322 Y119.075 E0.00957
G1 X47.322 Y125.036 E0.18691
G1 X46.567 Y125.036 E0.02365
G1 X46.567 Y119.184 E0.18349
G1 X46.048 Y119.180 E0.01629
G1 X45.813 Y119.153 E0.00740
G1 X45.813 Y125.036 E0.18446
G1 X45.059 Y125.036 E0.02365
G1 X45.059 Y118.977 E0.18999
G1 X44.801 Y118.881 E0.00862
G1 X44.305 Y118.631 E0.01743
G1 X44.305 Y125.036 E0.20084
G1 X43.551 Y125.036 E0.02365
G1 X43.551 Y118.058 E0.21881
G1 X43.286 Y117.780 E0.01203
G1 X43.089 Y117.531 E0.00996
G1 X42.797 Y117.063 E0.01731
G1 X42.797 Y125.036 E0.25001
G1 X42.043 Y125.036 E0.02365
G1 X42.043 Y105.264 E0.61995
G1 X42.797 Y105.264 E0.02365
G1 X42.797 Y113.230 E0.24977
G1 X43.089 Y112.762 E0.01731
G1 X43.286 Y112.513 E0.00996
G1 X43.551 Y112.235 E0.01203
G1 X43.551 Y105.264 E0.21857
M73 P2 R37
G1 X44.305 Y105.264 E0.02365
G1 X44.305 Y111.662 E0.20060
G1 X44.801 Y111.412 E0.01743
G1 X45.059 Y111.316 E0.00862
G1 X45.059 Y105.264 E0.18976
G1 X45.813 Y105.264 E0.02365
G1 X45.813 Y111.139 E0.18423
G1 X46.048 Y111.112 E0.00740
G1 X46.567 Y111.108 E0.01629
G1 X46.567 Y105.264 E0.18325
G1 X47.322 Y105.264 E0.02365
G1 X47.322 Y111.218 E0.18667
M73 P2 R36
G1 X47.615 Y111.301 E0.00957
G1 X48.076 Y111.487 E0.01557
G1 X48.076 Y105.264 E0.19511
G1 X48.830 Y105.264 E0.02365
G1 X48.830 Y111.947 E0.20956
G1 X49.224 Y112.291 E0.01639
G1 X49.584 Y112.709 E0.01730
G1 X49.584 Y105.264 E0.23344
G1 X50.338 Y105.264 E0.02365
G1 X50.338 Y125.036 E0.61995
G1 X51.092 Y125.036 E0.02365
G1 X51.092 Y105.264 E0.61995
G1 X51.847 Y105.264 E0.02365
G1 X51.847 Y125.206 E0.62527
G1 X55.617 Y125.206 F10800.000
G1 F1200.000
G1 X55.617 Y122.709 E0.07828
G1 X54.863 Y122.709 E0.02365
G1 X54.863 Y125.036 E0.07296
G1 X54.109 Y125.036 E0.02365
G1 X54.109 Y122.709 E0.07296
G1 X53.355 Y122.709 E0.02365
G1 X53.355 Y125.036 E0.07297
G1 X52.601 Y125.036 E0.02365
G1 X52.601 Y105.264 E0.61995
G1 X53.355 Y105.264 E0.02365
G1 X53.355 Y107.591 E0.07297
G1 X54.109 Y107.591 E0.02365
G1 X54.109 Y105.264 E0.07296
G1 X54.863 Y105.264 E0.02365
G1 X54.863 Y107.591 E0.07296
G1 X55.617 Y107.591 E0.02365
G1 X55.617 Y105.094 E0.07828
;WIPE_START
G1 F8640.000
G1 X55.617 Y107.591 E-0.57646
G1 X54.863 Y107.591 E-0.17414
G1 X54.863 Y107.550 E-0.00940
;WIPE_END
G1 E-0.04000 F2100.000
G1 Z0.600 F10800.000
G1 X122.738 Y113.143
G1 Z0.200
G1 E0.80000 F2100.000
G1 F1200.000
G1 X122.738 Y116.892 E0.11754
G1 X123.066 Y117.251 E0.01525
G1 X123.246 Y117.404 E0.00740
G1 X123.492 Y117.573 E0.00936
G1 X123.492 Y112.727 E0.15195
G1 X123.853 Y112.534 E0.01283
G1 X124.246 Y112.397 E0.01306
G1 X124.246 Y117.903 E0.17263
G1 X124.530 Y117.967 E0.00913
G1 X125.000 Y118.006 E0.01479
G1 X125.000 Y112.294 E0.17910
G1 X125.470 Y112.333 E0.01479
G1 X125.754 Y112.397 E0.00913
G1 X125.754 Y117.903 E0.17263
G1 X126.147 Y117.766 E0.01306
G1 X126.508 Y117.573 E0.01283
G1 X126.508 Y112.727 E0.15195
G1 X126.754 Y112.896 E0.00936
G1 X126.934 Y113.049 E0.00740
G1 X127.262 Y113.408 E0.01525
G1 X127.262 Y117.157 E0.11754
;WIPE_START
G1 F8640.000
G1 X127.262 Y113.865 E-0.76000
;WIPE_END
G1 E-0.04000 F2100.000
G1 Z0.600 F10800.000
G1 X194.383 Y105.094
G1 Z0.200
G1 E0.80000 F2100.000
G1 F1200.000
G1 X194.383 Y107.591 E0.07828
G1 X195.137 Y107.591 E0.02365
G1 X195.137 Y105.264 E0.07296
G1 X195.891 Y105.264 E0.02365
G1 X195.891 Y107.591 E0.07296
G1 X196.645 Y107.591 E0.02365
G1 X196.645 Y105.264 E0.07297
G1 X197.399 Y105.264 E0.02365
G1 X197.399 Y125.036 E0.61995
G1 X198.153 Y125.036 E0.02365
G1 X198.153 Y105.264 E0.61995
G1 X198.908 Y105.264 E0.02365
G1 X198.908 Y125.206 E0.62527
G1 X196.645 Y125.206 F10800.000
G1 F1200.000
G1 X196.645 Y122.709 E0.07829
G1 X195.891 Y122.709 E0.02365
G1 X195.891 Y125.036 E0.07296
G1 X195.137 Y125.036 E0.02365
G1 X195.137 Y122.709 E0.07296
G1 X194.383 Y122.709 E0.02365
G1 X194.383 Y125.206 E0.07828
G1 X207.203 Y125.206 F10800.000
G1 F1200.000
G1 X207.203 Y117.104 E0.25403
G1 X206.930 Y117.538 E0.01609
G1 X206.733 Y117.787 E0.00996
G1 X206.449 Y118.083 E0.01284
G1 X206.449 Y125.036 E0.21802
G1 X205.695 Y125.036 E0.02365
G1 X205.695 Y118.649 E0.20027
G1 X205.217 Y118.888 E0.01675
G1 X204.941 Y118.991 E0.00925
G1 X204.941 Y125.036 E0.18954
G1 X204.187 Y125.036 E0.02365
G1 X204.187 Y119.163 E0.18416
G1 X203.670 Y119.199 E0.01625
G1 X203.433 Y119.191 E0.00744
G1 X203.433 Y125.036 E0.18328
G1 X202.678 Y125.036 E0.02365
G1 X202.678 Y119.077 E0.18684
G1 X202.404 Y118.999 E0.00895
G1 X201.924 Y118.805 E0.01622
G1 X201.924 Y125.036 E0.19538
G1 X201.170 Y125.036 E0.02365
G1 X201.170 Y118.338 E0.21003
G1 X200.795 Y118.009 E0.01564
G1 X200.416 Y117.567 E0.01826
G1 X200.416 Y125.036 E0.23419
G1 X199.662 Y125.036 E0.02365
G1 X199.662 Y105.264 E0.61995
G1 X200.416 Y105.264 E0.02365
G1 X200.416 Y112.741 E0.23443
G1 X200.795 Y112.299 E0.01826
G1 X201.170 Y111.970 E0.01564
G1 X201.170 Y105.264 E0.21026
M73 P3 R36
G1 X201.924 Y105.264 E0.02365
G1 X201.924 Y111.503 E0.19562
G1 X202.404 Y111.309 E0.01622
G1 X202.678 Y111.230 E0.00895
G1 X202.678 Y105.264 E0.18708
G1 X203.433 Y105.264 E0.02365
G1 X203.433 Y111.117 E0.18351
G1 X203.670 Y111.108 E0.00744
G1 X204.187 Y111.145 E0.01625
G1 X204.187 Y105.264 E0.18439
G1 X204.941 Y105.264 E0.02365
G1 X204.941 Y111.316 E0.18977
G1 X205.217 Y111.419 E0.00925
G1 X205.695 Y111.659 E0.01675
G1 X205.695 Y105.264 E0.20051
G1 X206.449 Y105.264 E0.02365
G1 X206.449 Y112.225 E0.21826
G1 X206.733 Y112.520 E0.01284
G1 X206.930 Y112.769 E0.00996
G1 X207.203 Y113.204 E0.01609
G1 X207.203 Y105.264 E0.24895
G1 X207.957 Y105.264 E0.02365
G1 X207.957 Y125.036 E0.61995
G1 X208.712 Y125.036 E0.02365
G1 X208.712 Y105.264 E0.61995
G1 X209.466 Y105.264 E0.02365
G1 X209.466 Y125.036 E0.61995
G1 X210.220 Y125.036 E0.02365
G1 X210.220 Y105.264 E0.61995
G1 X210.974 Y105.264 E0.02365
G1 X210.974 Y125.036 E0.61995
G1 X211.728 Y125.036 E0.02365
G1 X211.728 Y105.264 E0.61995
G1 X212.482 Y105.264 E0.02365
G1 X212.482 Y125.036 E0.61995
G1 X213.237 Y125.036 E0.02365
G1 X213.237 Y105.264 E0.61995
G1 X213.991 Y105.264 E0.02365
G1 X213.991 Y125.036 E0.61995
G1 X214.745 Y125.036 E0.02365
G1 X214.745 Y105.264 E0.61995
G1 X215.499 Y105.264 E0.02365
G1 X215.499 Y125.206 E0.62527
;WIPE_START
G1 F8640.000
G1 X215.499 Y121.914 E-0.76000
;WIPE_END
G1 E-0.04000 F2100.000
G1 Z0.600 F10800.000
G1 X129.004 Y115.818
G1 Z0.200
G1 E0.80000 F2100.000
;TYPE:Perimeter
G1 F1200.000
G1 X128.839 Y116.468 E0.02102
G1 X128.570 Y117.082 E0.02102
G1 X128.210 Y117.633 E0.02064
G1 X127.978 Y117.908 E0.01128
G1 X127.493 Y118.353 E0.02063
G1 X126.957 Y118.705 E0.02011
G1 X126.631 Y118.866 E0.01139
G1 X126.306 Y118.992 E0.01094
G1 X125.668 Y119.154 E0.02064
G1 X125.000 Y119.209 E0.02102
G1 X124.332 Y119.154 E0.02102
G1 X123.694 Y118.992 E0.02064
G1 X123.370 Y118.866 E0.01090
G1 X123.058 Y118.713 E0.01090
G1 X122.507 Y118.353 E0.02064
G1 X122.014 Y117.899 E0.02102
G1 X121.602 Y117.370 E0.02102
G1 X121.288 Y116.791 E0.02064
G1 X121.158 Y116.456 E0.01128
G1 X120.996 Y115.818 E0.02064
G1 X120.941 Y115.150 E0.02102
G1 X120.996 Y114.482 E0.02102
G1 X121.161 Y113.832 E0.02102
G1 X121.430 Y113.218 E0.02101
G1 X121.780 Y112.681 E0.02011
G1 X122.022 Y112.393 E0.01178
G1 X122.498 Y111.955 E0.02029
G1 X122.791 Y111.746 E0.01128
G1 X123.369 Y111.433 E0.02064
G1 X123.992 Y111.219 E0.02064
G1 X124.344 Y111.145 E0.01127
G1 X124.971 Y111.092 E0.01973
G1 X125.334 Y111.106 E0.01139
G1 X125.680 Y111.149 E0.01094
G1 X126.306 Y111.308 E0.02026
G1 X126.641 Y111.438 E0.01128
G1 X127.220 Y111.752 E0.02064
G1 X127.749 Y112.164 E0.02102
G1 X128.203 Y112.657 E0.02102
G1 X128.563 Y113.208 E0.02064
G1 X128.716 Y113.520 E0.01090
G1 X128.842 Y113.844 E0.01090
G1 X129.004 Y114.482 E0.02064
G1 X129.059 Y115.150 E0.02102
G1 X129.009 Y115.758 E0.01914
G1 X128.633 Y115.727 F10800.000
;TYPE:External perimeter
G1 F1200.000
G1 X128.481 Y116.345 E0.01995
G1 X128.237 Y116.902 E0.01906
G1 X127.907 Y117.407 E0.01892
G1 X127.705 Y117.646 E0.00981
G1 X127.261 Y118.055 E0.01892
G1 X126.769 Y118.377 E0.01842
G1 X126.479 Y118.520 E0.01016
G1 X126.191 Y118.633 E0.00969
G1 X125.606 Y118.781 E0.01892
G1 X125.000 Y118.831 E0.01906
G1 X124.394 Y118.781 E0.01906
G1 X123.809 Y118.633 E0.01892
G1 X123.522 Y118.520 E0.00967
G1 X123.244 Y118.385 E0.00967
G1 X122.739 Y118.055 E0.01892
G1 X122.292 Y117.643 E0.01906
G1 X121.918 Y117.163 E0.01906
G1 X121.631 Y116.632 E0.01892
G1 X121.517 Y116.341 E0.00981
G1 X121.369 Y115.756 E0.01892
G1 X121.319 Y115.150 E0.01906
G1 X121.369 Y114.544 E0.01906
G1 X121.519 Y113.955 E0.01906
G1 X121.763 Y113.398 E0.01906
G1 X122.084 Y112.906 E0.01842
G1 X122.295 Y112.654 E0.01030
G1 X122.736 Y112.248 E0.01880
G1 X122.991 Y112.066 E0.00981
G1 X123.521 Y111.779 E0.01892
G1 X124.092 Y111.583 E0.01892
G1 X124.398 Y111.519 E0.00981
G1 X124.980 Y111.470 E0.01829
G1 X125.303 Y111.482 E0.01016
G1 X125.610 Y111.520 E0.00969
G1 X126.191 Y111.667 E0.01879
G1 X126.482 Y111.781 E0.00981
G1 X127.013 Y112.068 E0.01892
G1 X127.493 Y112.442 E0.01906
G1 X127.905 Y112.889 E0.01906
G1 X128.235 Y113.394 E0.01892
G1 X128.370 Y113.672 E0.00967
G1 X128.483 Y113.959 E0.00967
G1 X128.631 Y114.544 E0.01892
G1 X128.681 Y115.150 E0.01906
G1 X128.638 Y115.667 E0.01628
G1 X128.943 Y115.980 F10800.000
;WIPE_START
G1 F8640.000
G1 X128.481 Y116.345 E-0.16062
G1 X128.237 Y116.902 E-0.14037
G1 X127.907 Y117.407 E-0.13937
G1 X127.705 Y117.646 E-0.07225
G1 X127.261 Y118.055 E-0.13934
G1 X126.869 Y118.311 E-0.10806
;WIPE_END
G1 E-0.04000 F2100.000
G1 Z0.600 F10800.000
G1 X195.713 Y108.791
G1 Z0.200
G1 E0.80000 F2100.000
;TYPE:Perimeter
G1 F1200.000
G1 X195.713 Y121.508 E0.39873
G1 X54.287 Y121.508 E4.43431
M73 P4 R36
G1 X54.287 Y108.792 E0.39873
G1 X195.653 Y108.791 E4.43243
G1 X196.090 Y108.414 F10800.000
;TYPE:External perimeter
G1 F1200.000
G1 X196.090 Y121.886 E0.42238
G1 X53.910 Y121.886 E4.45795
M73 P4 R35
G1 X53.910 Y108.414 E0.42238
G1 X196.030 Y108.414 E4.45607
M73 P5 R35
G1 X195.901 Y108.767 F10800.000
;WIPE_START
G1 F8640.000
G1 X196.045 Y111.706 E-0.76000
;WIPE_END
G1 E-0.04000 F2100.000
G1 Z0.600 F10800.000
G1 X194.837 Y108.905
G1 Z0.200
G1 E0.80000 F2100.000
;TYPE:Solid infill
;WIDTH:0.42045
G1 F1200.000
G1 X195.430 Y109.498 E0.02635
G1 X195.430 Y110.032 E0.01676
G1 X194.472 Y109.074 E0.04252
G1 X193.938 Y109.074 E0.01676
G1 X195.430 Y110.566 E0.06622
G1 X195.430 Y111.100 E0.01676
G1 X193.405 Y109.074 E0.08992
G1 X192.871 Y109.074 E0.01676
G1 X195.430 Y111.634 E0.11363
G1 X195.430 Y112.168 E0.01676
G1 X192.337 Y109.074 E0.13733
G1 X191.803 Y109.074 E0.01676
G1 X195.430 Y112.702 E0.16103
G1 X195.430 Y113.235 E0.01676
G1 X191.269 Y109.074 E0.18474
G1 X190.735 Y109.074 E0.01676
G1 X195.430 Y113.769 E0.20844
G1 X195.430 Y114.303 E0.01676
G1 X190.201 Y109.074 E0.23214
G1 X189.667 Y109.074 E0.01676
G1 X195.430 Y114.837 E0.25584
G1 X195.430 Y115.371 E0.01676
G1 X189.133 Y109.074 E0.27955
G1 X188.599 Y109.074 E0.01676
G1 X195.430 Y115.905 E0.30325
G1 X195.430 Y116.439 E0.01676
G1 X188.065 Y109.074 E0.32695
G1 X187.532 Y109.074 E0.01676
G1 X195.430 Y116.973 E0.35065
G1 X195.430 Y117.507 E0.01676
G1 X186.998 Y109.074 E0.37436
G1 X186.464 Y109.074 E0.01676
G1 X195.430 Y118.041 E0.39806
G1 X195.430 Y118.575 E0.01676
G1 X185.930 Y109.074 E0.42176
G1 X185.396 Y109.074 E0.01676
G1 X195.430 Y119.108 E0.44546
G1 X195.430 Y119.642 E0.01676
G1 X184.862 Y109.074 E0.46917
G1 X184.328 Y109.074 E0.01676
G1 X195.430 Y120.176 E0.49287
G1 X195.430 Y120.710 E0.01676
G1 X183.794 Y109.074 E0.51657
G1 X183.260 Y109.074 E0.01676
G1 X195.412 Y121.226 E0.53946
G1 X194.878 Y121.226 E0.01676
G1 X182.726 Y109.074 E0.53946
G1 X182.192 Y109.074 E0.01676
G1 X194.344 Y121.226 E0.53946
G1 X193.810 Y121.226 E0.01676
G1 X181.659 Y109.074 E0.53946
G1 X181.125 Y109.074 E0.01676
G1 X193.276 Y121.226 E0.53946
G1 X192.742 Y121.226 E0.01676
G1 X180.591 Y109.074 E0.53946
G1 X180.057 Y109.074 E0.01676
G1 X192.208 Y121.226 E0.53946
G1 X191.674 Y121.226 E0.01676
G1 X179.523 Y109.074 E0.53946
M73 P6 R35
G1 X178.989 Y109.074 E0.01676
G1 X191.140 Y121.226 E0.53946
G1 X190.607 Y121.226 E0.01676
G1 X178.455 Y109.074 E0.53946
G1 X177.921 Y109.074 E0.01676
G1 X190.073 Y121.226 E0.53946
G1 X189.539 Y121.226 E0.01676
G1 X177.387 Y109.074 E0.53946
G1 X176.853 Y109.074 E0.01676
G1 X189.005 Y121.226 E0.53946
G1 X188.471 Y121.226 E0.01676
G1 X176.320 Y109.074 E0.53946
G1 X175.786 Y109.074 E0.01676
G1 X187.937 Y121.226 E0.53946
G1 X187.403 Y121.226 E0.01676
G1 X175.252 Y109.074 E0.53946
G1 X174.718 Y109.074 E0.01676
G1 X186.869 Y121.226 E0.53946
G1 X186.335 Y121.226 E0.01676
G1 X174.184 Y109.074 E0.53946
G1 X173.650 Y109.074 E0.01676
G1 X185.801 Y121.226 E0.53946
G1 X185.267 Y121.226 E0.01676
G1 X173.116 Y109.074 E0.53946
G1 X172.582 Y109.074 E0.01676
