; generated by PrusaSlicer 2.3.3+win64 on 2022-02-27 at 22:00:54 UTC

; 

; external perimeters extrusion width = 0.45mm
; perimeters extrusion width = 0.45mm
; infill extrusion width = 0.45mm
; solid infill extrusion width = 0.45mm
; top infill extrusion width = 0.40mm
; support material extrusion width = 0.35mm
; first layer extrusion width = 0.42mm

M73 P0 R175
M201 X9000 Y9000 Z500 E10000 ; sets maximum accelerations, mm/sec^2
M203 X500 Y500 Z12 E120 ; sets maximum feedrates, mm/sec
M204 P2000 R1500 T2000 ; sets acceleration (P, T) and retract acceleration (R), mm/sec^2
M205 X10.00 Y10.00 Z0.20 E4.50 ; sets the jerk limits, mm/sec
M205 S0 T0 ; sets the minimum extruding and travel feed rate, mm/sec
M107
;TYPE:Custom
M862.3 P "MK2.5S" ; printer model check
M862.1 P0.4 ; nozzle diameter check
M115 U3.10.0 ; tell printer latest fw version
G90 ; use absolute coordinates
M83  ; extruder relative mode
M104 S215 ; set extruder temp
M140 S60 ; set bed temp
M190 S60 ; wait for bed temp
M109 S215 ; wait for extruder temp
G28 W ; home all without mesh bed level
G80 ; mesh bed leveling
G1 Y-3.0 F1000.0 ; go outside print area
G92 E0.0
G1 X60.0 E9.0 F1000.0 ; intro line
G1 X100.0 E12.5 F1000.0 ; intro line
G92 E0.0
G21 ; set units to millimeters
G90 ; use absolute coordinates
M83 ; use relative distances for extrusion
M900 K0.05 ; Filament gcode LA 1.5
M900 K30 ; Filament gcode LA 1.0
;LAYER_CHANGE
;Z:0.2
;HEIGHT:0.2
;BEFORE_LAYER_CHANGE
G92 E0.0
;0.2


G1 E-0.80000 F2100.000
G1 Z0.400 F10800.000
;AFTER_LAYER_CHANGE
;0.2
G1 X39.168 Y24.826
G1 Z0.200
G1 E0.80000 F2100.000
M204 S1000
;TYPE:Skirt
;WIDTH:0.42
G1 F1200.000
G1 X39.645 Y24.184 E0.02508
G1 X40.312 Y23.734 E0.02520
G1 X41.089 Y23.533 E0.02520
G1 X65.424 Y23.355 E0.76301
G1 X203.502 Y26.878 E4.33076
G1 X204.444 Y27.104 E0.03036
G1 X205.215 Y27.684 E0.03024
G1 X205.650 Y28.404 E0.02637
G1 X205.807 Y29.234 E0.02649
G1 X206.247 Y137.853 E3.40570
G1 X206.247 Y180.787 E1.34617
G1 X206.187 Y181.278 E0.01550
G1 X206.028 Y181.742 E0.01538
G1 X205.775 Y182.166 E0.01550
G1 X205.440 Y182.530 E0.01550
G1 X204.713 Y182.968 E0.02661
G1 X203.879 Y183.122 E0.02661
G1 X46.566 Y183.123 E4.93243
G1 X46.067 Y183.069 E0.01574
G1 X45.590 Y182.911 E0.01574
G1 X45.154 Y182.655 E0.01585
G1 X44.785 Y182.315 E0.01574
G1 X44.395 Y181.705 E0.02272
G1 X44.207 Y181.005 E0.02272
G1 X38.913 Y128.817 E1.64472
G1 X38.931 Y25.594 E3.23648
M73 P0 R174
G1 X39.151 Y24.883 E0.02332
; printing object Part2.stl id:0 copy 0
;WIPE_START
G1 F8640.000
G1 X39.645 Y24.184 E-0.19781
G1 X40.312 Y23.734 E-0.18556
G1 X41.089 Y23.533 E-0.18556
G1 X41.917 Y23.527 E-0.19106
;WIPE_END
G1 E-0.04000 F2100.000
G1 Z0.600 F10800.000
G1 X41.288 Y48.151
G1 Z0.200
G1 E0.80000 F2100.000
;TYPE:Support material
G1 F1200.000
G1 X41.288 Y25.901 E0.69760
G1 X42.043 Y25.901 E0.02365
G1 X42.043 Y47.981 E0.69228
G1 X42.797 Y47.981 E0.02365
G1 X42.797 Y25.901 E0.69228
G1 X43.551 Y25.901 E0.02365
G1 X43.551 Y47.981 E0.69228
G1 X44.305 Y47.981 E0.02365
G1 X44.305 Y25.901 E0.69228
G1 X45.059 Y25.901 E0.02365
G1 X45.059 Y47.981 E0.69228
G1 X45.813 Y47.981 E0.02365
G1 X45.813 Y25.901 E0.69228
G1 X46.567 Y25.901 E0.02365
G1 X46.567 Y47.981 E0.69228
G1 X47.322 Y47.981 E0.02365
G1 X47.322 Y25.901 E0.69228
G1 X48.076 Y25.901 E0.02365
G1 X48.076 Y48.151 E0.69760
;WIPE_START
G1 F8640.000
G1 X48.076 Y44.859 E-0.76000
;WIPE_END
G1 E-0.04000 F2100.000
G1 Z0.600 F10800.000
G1 X65.421 Y25.732
G1 Z0.200
G1 E0.80000 F2100.000
G1 F1200.000
G1 X65.421 Y28.840 E0.09747
G1 X64.667 Y28.840 E0.02365
G1 X64.667 Y25.901 E0.09215
G1 X63.913 Y25.901 E0.02365
G1 X63.913 Y28.841 E0.09216
G1 X63.159 Y28.841 E0.02365
G1 X63.159 Y25.901 E0.09216
G1 X62.405 Y25.901 E0.02365
G1 X62.405 Y28.841 E0.09216
G1 X61.651 Y28.841 E0.02365
G1 X61.651 Y25.901 E0.09217
G1 X60.896 Y25.901 E0.02365
G1 X60.896 Y28.841 E0.09217
G1 X60.259 Y28.841 E0.02000
G1 X60.142 Y28.958 E0.00516
G1 X60.142 Y25.901 E0.09583
G1 X59.388 Y25.901 E0.02365
G1 X59.388 Y36.445 E0.33060
G1 X58.634 Y36.445 E0.02365
G1 X58.634 Y25.901 E0.33060
G1 X57.880 Y25.901 E0.02365
G1 X57.880 Y36.445 E0.33060
G1 X57.325 Y36.445 E0.01741
G1 X57.274 Y35.834 E0.01925
G1 X57.126 Y35.219 E0.01983
G1 X57.126 Y25.901 E0.29214
G1 X56.372 Y25.901 E0.02365
G1 X56.372 Y33.866 E0.24972
G1 X56.146 Y33.619 E0.01047
G1 X55.913 Y33.403 E0.00996
G1 X55.617 Y33.174 E0.01174
G1 X55.617 Y25.901 E0.22803
G1 X54.863 Y25.901 E0.02365
G1 X54.863 Y32.753 E0.21481
G1 X54.522 Y32.624 E0.01142
G1 X54.109 Y32.517 E0.01338
G1 X54.109 Y25.901 E0.20744
G1 X53.355 Y25.901 E0.02365
G1 X53.355 Y32.431 E0.20474
G1 X52.970 Y32.441 E0.01206
G1 X52.601 Y32.487 E0.01168
G1 X52.601 Y25.901 E0.20650
G1 X51.847 Y25.901 E0.02365
G1 X51.847 Y32.694 E0.21297
G1 X51.450 Y32.866 E0.01355
G1 X51.092 Y33.074 E0.01297
G1 X51.092 Y25.901 E0.22488
G1 X50.338 Y25.901 E0.02365
G1 X50.338 Y33.701 E0.24454
G1 X50.011 Y34.090 E0.01594
G1 X49.834 Y34.354 E0.00996
G1 X49.584 Y34.834 E0.01699
G1 X49.584 Y25.901 E0.28008
G1 X48.830 Y25.901 E0.02365
G1 X48.830 Y47.981 E0.69228
G1 X49.584 Y47.981 E0.02365
G1 X49.584 Y38.115 E0.30934
G1 X49.834 Y38.595 E0.01699
G1 X50.011 Y38.859 E0.00996
G1 X50.338 Y39.248 E0.01594
G1 X50.338 Y47.981 E0.27380
G1 X51.092 Y47.981 E0.02365
G1 X51.092 Y39.875 E0.25414
G1 X51.450 Y40.083 E0.01297
G1 X51.847 Y40.255 E0.01355
G1 X51.847 Y47.981 E0.24224
G1 X52.601 Y47.981 E0.02365
G1 X52.601 Y40.462 E0.23576
G1 X52.970 Y40.508 E0.01168
G1 X53.355 Y40.518 E0.01206
G1 X53.355 Y47.981 E0.23400
G1 X54.109 Y47.981 E0.02365
G1 X54.109 Y40.432 E0.23670
G1 X54.522 Y40.325 E0.01338
G1 X54.863 Y40.196 E0.01142
G1 X54.863 Y47.981 E0.24408
G1 X55.617 Y47.981 E0.02365
G1 X55.617 Y39.775 E0.25729
G1 X55.913 Y39.546 E0.01174
G1 X56.146 Y39.330 E0.00996
G1 X56.372 Y39.083 E0.01047
G1 X56.372 Y47.981 E0.27898
G1 X57.126 Y47.981 E0.02365
G1 X57.126 Y37.730 E0.32140
G1 X57.209 Y37.437 E0.00956
G1 X57.880 Y37.437 E0.02103
G1 X57.880 Y47.981 E0.33060
G1 X58.634 Y47.981 E0.02365
G1 X58.634 Y37.437 E0.33060
G1 X59.388 Y37.437 E0.02365
G1 X59.388 Y47.981 E0.33060
G1 X60.142 Y47.981 E0.02365
G1 X60.142 Y43.843 E0.12975
G1 X60.259 Y43.959 E0.00516
G1 X60.896 Y43.959 E0.02000
G1 X60.896 Y47.981 E0.12610
G1 X61.651 Y47.981 E0.02365
G1 X61.651 Y43.959 E0.12610
G1 X62.405 Y43.959 E0.02365
G1 X62.405 Y47.981 E0.12609
G1 X63.159 Y47.981 E0.02365
G1 X63.159 Y43.959 E0.12609
G1 X63.913 Y43.959 E0.02365
G1 X63.913 Y47.981 E0.12609
G1 X64.667 Y47.981 E0.02365
G1 X64.667 Y43.960 E0.12609
G1 X65.421 Y43.960 E0.02365
G1 X65.421 Y48.151 E0.13141
;WIPE_START
G1 F8640.000
G1 X65.421 Y44.859 E-0.76000
;WIPE_END
G1 E-0.04000 F2100.000
G1 Z0.600 F10800.000
G1 X65.421 Y53.417
G1 Z0.200
G1 E0.80000 F2100.000
G1 F1200.000
G1 X65.421 Y57.440 E0.12616
G1 X64.667 Y57.440 E0.02365
G1 X64.667 Y53.586 E0.12084
G1 X63.913 Y53.586 E0.02365
G1 X63.913 Y57.441 E0.12084
G1 X63.159 Y57.441 E0.02365
G1 X63.159 Y53.586 E0.12085
G1 X62.405 Y53.586 E0.02365
G1 X62.405 Y57.441 E0.12085
G1 X61.651 Y57.441 E0.02365
G1 X61.651 Y53.586 E0.12085
G1 X60.896 Y53.586 E0.02365
G1 X60.896 Y57.441 E0.12086
G1 X60.259 Y57.441 E0.02000
G1 X60.142 Y57.557 E0.00516
G1 X60.142 Y53.586 E0.12451
G1 X59.388 Y53.586 E0.02365
G1 X59.388 Y64.130 E0.33060
G1 X58.634 Y64.130 E0.02365
G1 X58.634 Y53.586 E0.33060
G1 X57.880 Y53.586 E0.02365
G1 X57.880 Y64.130 E0.33060
G1 X57.234 Y64.130 E0.02025
G1 X57.126 Y63.719 E0.01334
G1 X57.126 Y53.586 E0.31770
G1 X56.372 Y53.586 E0.02365
G1 X56.372 Y62.366 E0.27528
G1 X56.146 Y62.119 E0.01047
G1 X55.913 Y61.903 E0.00996
G1 X55.617 Y61.674 E0.01174
G1 X55.617 Y53.586 E0.25358
G1 X54.863 Y53.586 E0.02365
G1 X54.863 Y61.253 E0.24037
G1 X54.522 Y61.124 E0.01142
G1 X54.109 Y61.017 E0.01338
G1 X54.109 Y53.586 E0.23299
G1 X53.355 Y53.586 E0.02365
G1 X53.355 Y60.931 E0.23030
G1 X52.970 Y60.941 E0.01206
G1 X52.601 Y60.987 E0.01168
G1 X52.601 Y53.586 E0.23205
G1 X51.847 Y53.586 E0.02365
G1 X51.847 Y61.194 E0.23853
G1 X51.450 Y61.366 E0.01355
G1 X51.092 Y61.574 E0.01297
G1 X51.092 Y53.586 E0.25043
G1 X50.338 Y53.586 E0.02365
G1 X50.338 Y62.201 E0.27009
G1 X50.011 Y62.590 E0.01594
G1 X49.834 Y62.854 E0.00996
G1 X49.584 Y63.334 E0.01699
G1 X49.584 Y53.586 E0.30563
G1 X48.830 Y53.586 E0.02365
G1 X48.830 Y75.666 E0.69228
G1 X49.584 Y75.666 E0.02365
G1 X49.584 Y66.615 E0.28378
G1 X49.834 Y67.095 E0.01699
G1 X50.011 Y67.359 E0.00996
G1 X50.338 Y67.748 E0.01594
G1 X50.338 Y75.666 E0.24824
G1 X51.092 Y75.666 E0.02365
G1 X51.092 Y68.375 E0.22859
G1 X51.450 Y68.583 E0.01297
G1 X51.847 Y68.755 E0.01355
G1 X51.847 Y75.666 E0.21668
G1 X52.601 Y75.666 E0.02365
G1 X52.601 Y68.962 E0.21021
G1 X52.970 Y69.008 E0.01168
G1 X53.355 Y69.018 E0.01206
G1 X53.355 Y75.666 E0.20845
G1 X54.109 Y75.666 E0.02365
G1 X54.109 Y68.932 E0.21114
G1 X54.522 Y68.825 E0.01338
G1 X54.863 Y68.696 E0.01142
G1 X54.863 Y75.666 E0.21852
G1 X55.617 Y75.666 E0.02365
G1 X55.617 Y68.275 E0.23173
G1 X55.913 Y68.046 E0.01174
G1 X56.146 Y67.830 E0.00996
G1 X56.372 Y67.583 E0.01047
G1 X56.372 Y75.666 E0.25343
G1 X57.126 Y75.666 E0.02365
G1 X57.126 Y66.230 E0.29585
G1 X57.274 Y65.615 E0.01983
G1 X57.320 Y65.122 E0.01554
G1 X57.880 Y65.122 E0.01755
G1 X57.880 Y75.666 E0.33060
G1 X58.634 Y75.666 E0.02365
G1 X58.634 Y65.122 E0.33060
G1 X59.388 Y65.122 E0.02365
G1 X59.388 Y75.666 E0.33060
G1 X60.142 Y75.666 E0.02365
G1 X60.142 Y72.443 E0.10106
G1 X60.259 Y72.559 E0.00516
G1 X60.896 Y72.559 E0.02000
G1 X60.896 Y75.666 E0.09741
G1 X61.651 Y75.666 E0.02365
G1 X61.651 Y72.559 E0.09741
G1 X62.405 Y72.559 E0.02365
G1 X62.405 Y75.666 E0.09740
G1 X63.159 Y75.666 E0.02365
G1 X63.159 Y72.559 E0.09740
G1 X63.913 Y72.559 E0.02365
G1 X63.913 Y75.666 E0.09740
G1 X64.667 Y75.666 E0.02365
G1 X64.667 Y72.560 E0.09739
G1 X65.421 Y72.560 E0.02365
G1 X65.421 Y75.835 E0.10271
;WIPE_START
G1 F8640.000
G1 X65.421 Y72.560 E-0.75642
G1 X65.406 Y72.560 E-0.00358
;WIPE_END
G1 E-0.04000 F2100.000
G1 Z0.600 F10800.000
G1 X65.421 Y78.795
G1 Z0.200
G1 E0.80000 F2100.000
G1 F1200.000
G1 X65.421 Y82.840 E0.12685
G1 X64.667 Y82.840 E0.02365
G1 X64.667 Y78.964 E0.12154
G1 X63.913 Y78.964 E0.02365
G1 X63.913 Y82.841 E0.12154
G1 X63.159 Y82.841 E0.02365
G1 X63.159 Y78.964 E0.12154
G1 X62.405 Y78.964 E0.02365
G1 X62.405 Y82.841 E0.12155
G1 X61.651 Y82.841 E0.02365
G1 X61.651 Y78.964 E0.12155
G1 X60.896 Y78.964 E0.02365
G1 X60.896 Y82.841 E0.12156
G1 X60.259 Y82.841 E0.02000
G1 X60.142 Y82.958 E0.00516
G1 X60.142 Y78.964 E0.12521
G1 X59.388 Y78.964 E0.02365
G1 X59.388 Y89.508 E0.33060
G1 X58.634 Y89.508 E0.02365
G1 X58.634 Y78.964 E0.33060
G1 X57.880 Y78.964 E0.02365
G1 X57.880 Y89.508 E0.33060
G1 X57.208 Y89.508 E0.02107
G1 X57.126 Y89.219 E0.00943
G1 X57.126 Y78.964 E0.32152
G1 X56.372 Y78.964 E0.02365
G1 X56.372 Y87.866 E0.27911
G1 X56.146 Y87.619 E0.01047
G1 X55.913 Y87.403 E0.00996
G1 X55.617 Y87.174 E0.01174
G1 X55.617 Y78.964 E0.25741
G1 X54.863 Y78.964 E0.02365
G1 X54.863 Y86.753 E0.24420
G1 X54.522 Y86.624 E0.01142
G1 X54.109 Y86.517 E0.01338
G1 X54.109 Y78.964 E0.23682
G1 X53.355 Y78.964 E0.02365
G1 X53.355 Y86.431 E0.23413
G1 X52.970 Y86.441 E0.01206
G1 X52.601 Y86.487 E0.01168
G1 X52.601 Y78.964 E0.23588
G1 X51.847 Y78.964 E0.02365
G1 X51.847 Y86.694 E0.24236
M73 P0 R173
G1 X51.450 Y86.866 E0.01355
G1 X51.092 Y87.074 E0.01297
G1 X51.092 Y78.964 E0.25426
G1 X50.338 Y78.964 E0.02365
G1 X50.338 Y87.701 E0.27392
G1 X50.011 Y88.090 E0.01594
G1 X49.834 Y88.354 E0.00996
G1 X49.584 Y88.834 E0.01699
G1 X49.584 Y78.964 E0.30946
G1 X48.830 Y78.964 E0.02365
G1 X48.830 Y101.044 E0.69228
G1 X49.584 Y101.044 E0.02365
G1 X49.584 Y92.115 E0.27996
G1 X49.834 Y92.595 E0.01699
G1 X50.011 Y92.859 E0.00996
G1 X50.338 Y93.248 E0.01594
G1 X50.338 Y101.044 E0.24441
G1 X51.092 Y101.044 E0.02365
G1 X51.092 Y93.875 E0.22476
G1 X51.450 Y94.083 E0.01297
G1 X51.847 Y94.255 E0.01355
G1 X51.847 Y101.044 E0.21285
G1 X52.601 Y101.044 E0.02365
G1 X52.601 Y94.462 E0.20638
G1 X52.970 Y94.508 E0.01168
G1 X53.355 Y94.518 E0.01206
G1 X53.355 Y101.044 E0.20462
G1 X54.109 Y101.044 E0.02365
G1 X54.109 Y94.432 E0.20731
G1 X54.522 Y94.325 E0.01338
G1 X54.863 Y94.196 E0.01142
G1 X54.863 Y101.044 E0.21469
G1 X55.617 Y101.044 E0.02365
G1 X55.617 Y93.775 E0.22790
G1 X55.913 Y93.546 E0.01174
G1 X56.146 Y93.330 E0.00996
G1 X56.372 Y93.083 E0.01047
G1 X56.372 Y101.044 E0.24960
G1 X57.126 Y101.044 E0.02365
G1 X57.126 Y91.730 E0.29202
G1 X57.274 Y91.115 E0.01983
G1 X57.325 Y90.500 E0.01937
G1 X57.880 Y90.500 E0.01740
G1 X57.880 Y101.044 E0.33060
G1 X58.634 Y101.044 E0.02365
G1 X58.634 Y90.500 E0.33060
G1 X59.388 Y90.500 E0.02365
G1 X59.388 Y101.044 E0.33060
G1 X60.142 Y101.044 E0.02365
G1 X60.142 Y97.843 E0.10037
M73 P1 R173
G1 X60.259 Y97.959 E0.00516
G1 X60.896 Y97.959 E0.02000
G1 X60.896 Y101.044 E0.09671
G1 X61.651 Y101.044 E0.02365
G1 X61.651 Y97.959 E0.09671
G1 X62.405 Y97.959 E0.02365
G1 X62.405 Y101.044 E0.09671
G1 X63.159 Y101.044 E0.02365
G1 X63.159 Y97.959 E0.09671
G1 X63.913 Y97.959 E0.02365
G1 X63.913 Y101.044 E0.09670
G1 X64.667 Y101.044 E0.02365
G1 X64.667 Y97.960 E0.09670
G1 X65.421 Y97.960 E0.02365
G1 X65.421 Y101.213 E0.10202
;WIPE_START
G1 F8640.000
G1 X65.421 Y97.960 E-0.75131
G1 X65.384 Y97.960 E-0.00869
;WIPE_END
G1 E-0.04000 F2100.000
G1 Z0.600 F10800.000
G1 X62.405 Y111.610
G1 Z0.200
G1 E0.80000 F2100.000
G1 F1200.000
G1 X62.405 Y108.956 E0.08322
G1 X61.651 Y108.956 E0.02365
G1 X61.651 Y111.441 E0.07790
G1 X60.896 Y111.441 E0.02365
G1 X60.896 Y108.956 E0.07790
G1 X60.142 Y108.956 E0.02365
G1 X60.142 Y128.729 E0.61995
G1 X59.388 Y128.729 E0.02365
G1 X59.388 Y108.956 E0.61995
G1 X58.634 Y108.956 E0.02365
G1 X58.634 Y128.729 E0.61995
G1 X57.880 Y128.729 E0.02365
G1 X57.880 Y108.956 E0.61995
G1 X57.126 Y108.956 E0.02365
G1 X57.126 Y117.719 E0.27474
G1 X57.014 Y117.419 E0.01003
G1 X56.881 Y117.131 E0.00996
G1 X56.725 Y116.854 E0.00996
G1 X56.372 Y116.366 E0.01889
G1 X56.372 Y108.956 E0.23233
G1 X55.617 Y108.956 E0.02365
G1 X55.617 Y115.674 E0.21063
G1 X55.124 Y115.373 E0.01812
G1 X54.863 Y115.253 E0.00900
G1 X54.863 Y108.956 E0.19742
G1 X54.109 Y108.956 E0.02365
G1 X54.109 Y115.017 E0.19004
G1 X53.605 Y114.942 E0.01597
G1 X53.355 Y114.931 E0.00786
G1 X53.355 Y108.956 E0.18735
G1 X52.601 Y108.956 E0.02365
G1 X52.601 Y114.987 E0.18910
G1 X52.327 Y115.042 E0.00874
G1 X51.847 Y115.194 E0.01581
G1 X51.847 Y108.956 E0.19558
G1 X51.092 Y108.956 E0.02365
G1 X51.092 Y115.574 E0.20748
G1 X50.658 Y115.893 E0.01689
G1 X50.338 Y116.201 E0.01392
G1 X50.338 Y108.956 E0.22714
G1 X49.584 Y108.956 E0.02365
G1 X49.584 Y117.334 E0.26268
G1 X49.435 Y117.717 E0.01288
G1 X49.344 Y118.038 E0.01047
G1 X49.283 Y118.350 E0.00996
G1 X49.234 Y118.966 E0.01940
G1 X49.247 Y119.300 E0.01047
G1 X49.344 Y119.911 E0.01940
G1 X49.435 Y120.232 E0.01047
G1 X49.584 Y120.615 E0.01288
G1 X49.584 Y128.729 E0.25440
G1 X50.338 Y128.729 E0.02365
G1 X50.338 Y121.748 E0.21886
G1 X50.658 Y122.056 E0.01392
G1 X51.092 Y122.375 E0.01689
G1 X51.092 Y128.729 E0.19920
G1 X51.847 Y128.729 E0.02365
G1 X51.847 Y122.755 E0.18730
G1 X52.327 Y122.907 E0.01581
G1 X52.601 Y122.962 E0.00874
G1 X52.601 Y128.729 E0.18082
G1 X53.355 Y128.729 E0.02365
G1 X53.355 Y123.018 E0.17906
G1 X53.605 Y123.007 E0.00786
G1 X54.109 Y122.932 E0.01597
G1 X54.109 Y128.729 E0.18176
G1 X54.863 Y128.729 E0.02365
G1 X54.863 Y122.696 E0.18914
G1 X55.124 Y122.576 E0.00900
G1 X55.617 Y122.275 E0.01812
G1 X55.617 Y128.729 E0.20235
G1 X56.372 Y128.729 E0.02365
G1 X56.372 Y121.583 E0.22404
G1 X56.725 Y121.095 E0.01889
G1 X56.881 Y120.818 E0.00996
G1 X57.014 Y120.530 E0.00996
G1 X57.126 Y120.230 E0.01003
G1 X57.126 Y128.898 E0.27178
G1 X60.896 Y126.389 F10800.000
G1 F1200.000
G1 X60.896 Y128.729 E0.07335
G1 X61.651 Y128.729 E0.02365
G1 X61.651 Y126.559 E0.06802
G1 X62.405 Y126.559 E0.02365
G1 X62.405 Y128.898 E0.07334
G1 X48.830 Y128.898 F10800.000
G1 F1200.000
G1 X48.830 Y108.956 E0.62527
G1 X48.076 Y108.956 E0.02365
G1 X48.076 Y128.729 E0.61995
G1 X47.322 Y128.729 E0.02365
G1 X47.322 Y108.956 E0.61995
G1 X46.567 Y108.956 E0.02365
G1 X46.567 Y128.729 E0.61995
G1 X45.813 Y128.729 E0.02365
G1 X45.813 Y108.956 E0.61995
G1 X45.059 Y108.956 E0.02365
G1 X45.059 Y128.729 E0.61995
G1 X44.305 Y128.729 E0.02365
